!!!!SEGMENT: pl-wtm--r-1544--007_stefani-jozef--msza-no-9-benedictus.krn
!!!cenid: 18xx:1799
!!!COM: Stefani, Józef
!!!COM-rismID: pe30024097
!!!CDT: 1800/04/16-1876/03/19
!!!CNT: Polish
!!!OPR: Msza No 9
!!!OTL: Benedictus
!!!OMV: 007
!!!PDT: 1846
!!!AGN: Sacred; Mass
!!!SMS-siglum: PL-Wtm
!!!SMS-shelfmark: R 1544
!!!SMS-shelfwork: 001-007 M
!!!SMS-variant:
!!!SMS-altvar:
!!!NIFC-rismSourceID: 1001120493
!!!NIFC-islandoraID: pl-wtm:26509
!!!URL-pdf-islandora: https://repozytorium.nifc.pl/islandora/object/pl-wtm%3A26509/datastream/PDF/view
!!!URL-scan: https://polish.musicsources.pl/pl/lokalizacje/galeria/rekopisy/6345 @EN{Scan on Polish Music Herritage in Open Access Website} @PL{Skany w portalu Dziedzictwo Muzyki Polskiej w otwartym dostępie}
!!!ONB-nifc: UWAGA: części Mszy: 1. Kyrie, 2. Gloria, 3. Graduale, 4. Credo, 5. Offertorium, 6. Sanctus, 7. Benedictus, 8. Agnus Dei, 9. Dona nobis
!!!AIN: 1 clars 1 cor 2 empty 1 fagot 1 flt 1 oboe 2 soprn 1 tenor 1 timpa 1 tromp 1 viola 2 violn
!!!key:
**kern	**kern	**dynam	**kern	**text	**dynam	**kern	**text	**dynam	**kern	**kern	**text	**dynam	**kern	**dynam	**kern	**dynam	**kern	**dynam	**kern	**dynam	**kern	**dynam	**kern	**dynam	**kern	**dynam	**kern	**dynam	**kern	**dynam
*part15	*part14	*part14	*part13	*part13	*part13	*part12	*part12	*part12	*part11	*part10	*part10	*part10	*part9	*part9	*part8	*part8	*part7	*part7	*part6	*part6	*part5	*part5	*part4	*part4	*part3	*part3	*part2	*part2	*part1	*part1
*staff15	*staff14	*	*staff13	*staff13	*	*staff12	*staff12	*	*staff11	*staff10	*staff10	*	*staff9	*	*staff8	*	*staff7	*	*staff6	*	*staff5	*	*staff4	*	*staff3	*	*staff2	*	*staff1	*
*Itimpa	*Iempty	*	*Iempty	*	*	*Itenor	*	*	*Isoprn	*Isoprn	*	*	*Iviola	*	*Ivioln	*	*Ivioln	*	*Itromp	*	*Ifagot	*	*Icor	*	*Iclars	*	*Ioboe	*	*Iflt	*
*I"Tympani	*I"Basſi	*	*I"Basſo	*	*	*I"Tenore	*	*	*I"2o Soprano	*I"1o Soprano	*	*	*I"Viole	*	*I"[Violini]	*	*I"Violini	*	*I"in C Trombe	*	*I"Fagotti	*	*I"in C Corni	*	*I"in C Clarinetti	*	*I"Oboe	*	*I"Flauto	*
*I'timp	*I'b	*	*I'B	*	*	*I't	*	*	*I'S 2	*I'S 1	*	*	*I'vle	*	*I'vl 2	*	*I'vl 1	*	*I'tr	*	*I'fg	*	*I'cor	*	*I'cl	*	*I'ob	*	*I'fl	*
*stria1	*	*	*	*	*	*	*	*	*	*	*	*	*	*	*	*	*	*	*	*	*	*	*	*	*	*	*	*	*	*
*clefF4	*clefF4	*	*clefF4	*	*	*clefC4	*	*	*clefG2	*clefG2	*	*	*clefC3	*	*clefG2	*	*clefG2	*	*clefG2	*	*clefF4	*	*clefG2	*	*clefG2	*	*clefG2	*	*clefG2	*
*	*	*	*	*	*	*	*	*	*	*	*	*	*	*	*	*	*	*	*	*	*	*	*Trd0c0	*	*	*	*	*	*	*
*k[f#]	*k[f#]	*	*k[f#]	*	*	*k[f#]	*	*	*k[f#]	*k[f#]	*	*	*k[f#]	*	*k[f#]	*	*k[f#]	*	*k[]	*	*k[f#]	*	*k[]	*	*k[f#]	*	*k[f#]	*	*k[f#]	*
*G:	*G:	*	*G:	*	*	*G:	*	*	*G:	*G:	*	*	*G:	*	*G:	*	*G:	*	*G:	*	*G:	*	*G:	*	*G:	*	*G:	*	*G:	*
*M3/4	*M3/4	*	*M3/4	*	*	*M3/4	*	*	*M3/4	*M3/4	*	*	*M3/4	*	*M3/4	*	*M3/4	*	*M3/4	*	*M3/4	*	*M3/4	*	*M3/4	*	*M3/4	*	*M3/4	*
=1	=1	=1	=1	=1	=1	=1	=1	=1	=1	=1	=1	=1	=1	=1	=1	=1	=1	=1	=1	=1	=1	=1	=1	=1	=1	=1	=1	=1	=1	=1
*	*2\right	*	*	*	*	*	*	*	*	*	*	*	*2\right	*	*	*	*	*	*	*	*	*	*	*	*	*	*	*	*	*
!!LO:TX:t=P:problem:all\right:global
!	!	!	!	!	!	!	!	!	!	!	!	!	!	!	!	!	!	!	!	!	!	!	!	!	!	!	!	!	!LO:TX:a:t=Solo	!
!	!	!	!	!	!	!	!	!	!	!	!	!	!	!	!	!	!	!	!	!	!	!	!	!	!	!	!	!	!LO:TX:a:t=Benedictus	!
!	!	!	!	!	!	!	!	!	!	!	!	!	!	!	!	!	!	!LO:DY:a	!	!	!	!	!	!	!	!	!	!	!LO:TX:a:t=Andantino.	!
2.ryy	[2.D\	f pp	2.r	.	.	2.r	.	.	2.r	2.r	.	.	[2.d\	f pp	[2.c/	f pp	[2.A/ [2.f#	f pp	2.r	.	2.r	.	2.r	.	2.r	.	2.r	.	([4ccc\	.
.	.	.	.	.	.	.	.	.	.	.	.	.	.	.	.	.	.	.	.	.	.	.	.	.	.	.	.	.	16ccc\LL]	.
.	.	.	.	.	.	.	.	.	.	.	.	.	.	.	.	.	.	.	.	.	.	.	.	.	.	.	.	.	16bb\	.
.	.	.	.	.	.	.	.	.	.	.	.	.	.	.	.	.	.	.	.	.	.	.	.	.	.	.	.	.	16aa\	.
.	.	.	.	.	.	.	.	.	.	.	.	.	.	.	.	.	.	.	.	.	.	.	.	.	.	.	.	.	16gg\JJ	.
.	.	.	.	.	.	.	.	.	.	.	.	.	.	.	.	.	.	.	.	.	.	.	.	.	.	.	.	.	16ff#X\LL	.
.	.	.	.	.	.	.	.	.	.	.	.	.	.	.	.	.	.	.	.	.	.	.	.	.	.	.	.	.	16ee\	.
.	.	.	.	.	.	.	.	.	.	.	.	.	.	.	.	.	.	.	.	.	.	.	.	.	.	.	.	.	16dd\	.
.	.	.	.	.	.	.	.	.	.	.	.	.	.	.	.	.	.	.	.	.	.	.	.	.	.	.	.	.	16cc#X\JJ)	.
=2	=2	=2	=2	=2	=2	=2	=2	=2	=2	=2	=2	=2	=2	=2	=2	=2	=2	=2	=2	=2	=2	=2	=2	=2	=2	=2	=2	=2	=2	=2
2.ryy	(>2.D\]	.	2.r	.	.	2.r	.	.	2.r	2.r	.	.	2.d\]	.	2.c/]	.	2.A/] 2.f#]	.	2.r	.	2.r	.	2.r	.	2.r	.	2.r	.	([4dd\	.
.	.	.	.	.	.	.	.	.	.	.	.	.	.	.	.	.	.	.	.	.	.	.	.	.	.	.	.	.	16dd\LL]	.
.	.	.	.	.	.	.	.	.	.	.	.	.	.	.	.	.	.	.	.	.	.	.	.	.	.	.	.	.	16cc#X\	.
.	.	.	.	.	.	.	.	.	.	.	.	.	.	.	.	.	.	.	.	.	.	.	.	.	.	.	.	.	16dd\	.
.	.	.	.	.	.	.	.	.	.	.	.	.	.	.	.	.	.	.	.	.	.	.	.	.	.	.	.	.	16ee\JJ	.
.	.	.	.	.	.	.	.	.	.	.	.	.	.	.	.	.	.	.	.	.	.	.	.	.	.	.	.	.	16dd\LL	.
.	.	.	.	.	.	.	.	.	.	.	.	.	.	.	.	.	.	.	.	.	.	.	.	.	.	.	.	.	16ccn\	.
.	.	.	.	.	.	.	.	.	.	.	.	.	.	.	.	.	.	.	.	.	.	.	.	.	.	.	.	.	16b\	.
.	.	.	.	.	.	.	.	.	.	.	.	.	.	.	.	.	.	.	.	.	.	.	.	.	.	.	.	.	16a\JJ)	.
=3	=3	=3	=3	=3	=3	=3	=3	=3	=3	=3	=3	=3	=3	=3	=3	=3	=3	=3	=3	=3	=3	=3	=3	=3	=3	=3	=3	=3	=3	=3
*	*	*	*	*	*	*	*	*	*	*	*	*	*	*	*	*	*	*	*	*	*	*	*^	*	*^	*	*	*	*	*
!	!	!	!	!	!	!	!	!	!	!	!	!	!	!	!	!	!	!	!	!	!	!	!	!	!	!	!	!LO:DY:a	!	!	!LO:TX:t=P:problem=mixed beam	!
2.ryy	8E\L)	.	2.r	.	.	2.r	.	.	2.r	2.r	.	.	8e\L	.	8B/L	.	8G/L 8g	.	2.r	.	2.r	.	8.r	8.rAyy	p	8.r	8.rAyy	p	2.r	.	8g|/L	.
.	16r	.	.	.	.	.	.	.	.	.	.	.	16r	.	16r	.	16r	.	.	.	.	.	.	.	.	.	.	.	.	.	16r	.
.	16E\Jk	.	.	.	.	.	.	.	.	.	.	.	16e\Jk	.	16B/Jk	.	16B/Jk 16g	.	.	.	.	.	16ee/	16ee\	.	16b/	16g\	.	.	.	16bb|\Jk	.
.	4E\	.	.	.	.	.	.	.	.	.	.	.	4e\	.	4B/	.	4B/ 4g	.	.	.	.	.	4ee/	4ee\	.	4b/	4g\	.	.	.	4bb|\	.
.	4E\	.	.	.	.	.	.	.	.	.	.	.	4e\	.	4c#X/	.	4A/ 4g	.	.	.	.	.	4ee/	4ee\	.	4a/	4g\	.	.	.	4ccc#Xt\	.
*	*	*	*	*	*	*	*	*	*	*	*	*	*	*	*	*	*	*	*	*	*	*	*	*	*	*v	*v	*	*	*	*	*
.	.	.	.	.	.	.	.	.	.	.	.	.	.	.	.	.	.	.	.	.	.	.	.	.	.	.	.	.	.	(16qqbb/LL	.
.	.	.	.	.	.	.	.	.	.	.	.	.	.	.	.	.	.	.	.	.	.	.	.	.	.	.	.	.	.	16qqccc#/JJ)	.
!!LO:PB:g=original
=4	=4	=4	=4	=4	=4	=4	=4	=4	=4	=4	=4	=4	=4	=4	=4	=4	=4	=4	=4	=4	=4	=4	=4	=4	=4	=4	=4	=4	=4	=4	=4
2.ryy	4D\	.	2.ryy	.	.	2.ryy	.	.	2.ryy	2.ryy	.	.	4d\	.	4d/	.	4A/ 4f#	.	2.r	.	2.r	.	8dd/	8dd\	.	8f#/ 8a	.	(4.ddT\	.	(4.dddT\	.
.	.	.	.	.	.	.	.	.	.	.	.	.	.	.	.	.	.	.	.	.	.	.	8r	8reyy	.	8r	.	.	.	.	.
.	4r	.	.	.	.	.	.	.	.	.	.	.	4r	.	4r	.	4r	.	.	.	.	.	4r	4reyy	.	8r	.	.	.	.	.
.	.	.	.	.	.	.	.	.	.	.	.	.	.	.	.	.	.	.	.	.	.	.	.	.	.	(8b\L 8dd	.	8gg\L	.	8ggg\L	.
.	4r	.	.	.	.	.	.	.	.	.	.	.	4r	.	4r	.	4r	.	.	.	.	.	4r	4reyy	.	8a\) 8cc	.	8ee\)	.	8eee\)	.
.	.	.	.	.	.	.	.	.	.	.	.	.	.	.	.	.	.	.	.	.	.	.	.	.	.	8d'\J 8a	.	8ff#'\J	.	8fff#'\J	.
*	*	*	*	*	*	*	*	*	*	*	*	*	*	*	*	*	*	*	*	*	*	*	*v	*v	*	*	*	*	*	*	*
=5	=5	=5	=5	=5	=5	=5	=5	=5	=5	=5	=5	=5	=5	=5	=5	=5	=5	=5	=5	=5	=5	=5	=5	=5	=5	=5	=5	=5	=5	=5
2.ryy	2.r	.	2.ryy	.	.	2.ryy	.	.	2.ryy	2.ryy	.	.	2.r	.	2.r	.	2.r	.	2.r	.	2.r	.	2.r	.	8g\ 8b	.	8gg\	.	8ggg\	.
.	.	.	.	.	.	.	.	.	.	.	.	.	.	.	.	.	.	.	.	.	.	.	.	.	8r	.	(4ddT\	.	(4dddT\	.
.	.	.	.	.	.	.	.	.	.	.	.	.	.	.	.	.	.	.	.	.	.	.	.	.	8r	.	.	.	.	.
.	.	.	.	.	.	.	.	.	.	.	.	.	.	.	.	.	.	.	.	.	.	.	.	.	(8b\L 8dd	.	8gg\L	.	8ggg\L	.
.	.	.	.	.	.	.	.	.	.	.	.	.	.	.	.	.	.	.	.	.	.	.	.	.	8a\) 8cc	.	8ee\)	.	8eee\)	.
.	.	.	.	.	.	.	.	.	.	.	.	.	.	.	.	.	.	.	.	.	.	.	.	.	8d'\J 8a	.	8ff#'\J	.	8fff#'\J	.
=6	=6	=6	=6	=6	=6	=6	=6	=6	=6	=6	=6	=6	=6	=6	=6	=6	=6	=6	=6	=6	=6	=6	=6	=6	=6	=6	=6	=6	=6	=6
*	*	*	*	*	*	*	*	*	*	*	*	*	*	*	*	*	*	*	*	*	*	*	*	*	*	*	*2\right	*	*	*
*	*	*	*	*	*	*	*	*	*	*	*	*	*	*	*	*	*	*	*	*	*	*	*^	*	*^	*	*	*	*	*
2.ryy	4r	.	2.ryy	.	.	2.ryy	.	.	2.ryy	2.ryy	.	.	4r	.	4r	.	4r	.	2.r	.	4r	.	4r	4rAyy	.	(2.g/	2.e\	.	4gg\	.	(>[4ggg\	.
.	4r	.	.	.	.	.	.	.	.	.	.	.	4r	.	4r	.	4r	.	.	.	4r	.	4r	4rAyy	.	.	.	.	4r	.	16ggg\LL]	.
.	.	.	.	.	.	.	.	.	.	.	.	.	.	.	.	.	.	.	.	.	.	.	.	.	.	.	.	.	.	.	16fff#\	.
.	.	.	.	.	.	.	.	.	.	.	.	.	.	.	.	.	.	.	.	.	.	.	.	.	.	.	.	.	.	.	16eee\	.
.	.	.	.	.	.	.	.	.	.	.	.	.	.	.	.	.	.	.	.	.	.	.	.	.	.	.	.	.	.	.	16ddd\JJ	.
!	!	!	!	!	!	!	!	!	!	!	!	!	!	!	!	!	!	!	!	!	!	!LO:DY:a	!	!	!	!	!	!	!	!	!	!
.	4AA/	.	.	.	.	.	.	.	.	.	.	.	4A/	.	(4e/	.	4A/ 4g	.	.	.	4AA\ 4A	p	4ee/	4cc#X\	.	.	.	.	4r	.	16ccc#X\LL	.
.	.	.	.	.	.	.	.	.	.	.	.	.	.	.	.	.	.	.	.	.	.	.	.	.	.	.	.	.	.	.	16bb\	.
.	.	.	.	.	.	.	.	.	.	.	.	.	.	.	.	.	.	.	.	.	.	.	.	.	.	.	.	.	.	.	16aa\	.
.	.	.	.	.	.	.	.	.	.	.	.	.	.	.	.	.	.	.	.	.	.	.	.	.	.	.	.	.	.	.	16gg\JJ	.
*	*	*	*	*	*	*	*	*	*	*	*	*	*	*	*	*	*	*	*	*	*	*	*	*	*	*v	*v	*	*	*	*	*
=7	=7	=7	=7	=7	=7	=7	=7	=7	=7	=7	=7	=7	=7	=7	=7	=7	=7	=7	=7	=7	=7	=7	=7	=7	=7	=7	=7	=7	=7	=7	=7
2.ryy	8D\	.	2.ryy	.	.	2.ryy	.	.	2.ryy	2.ryy	.	.	8d\	.	8d/)	.	8A/ 8f#	.	2.r	.	8D\ 8A	.	4.dd/	4.dd\	p	8d\) 8f#	.	2.r	.	16ff#,\LL)	.
.	.	.	.	.	.	.	.	.	.	.	.	.	.	.	.	.	.	.	.	.	.	.	.	.	.	.	.	.	.	(16dd\	.
.	8r	.	.	.	.	.	.	.	.	.	.	.	8r	.	8r	.	8r	.	.	.	8r	.	.	.	.	8r	.	.	.	16ff#\)	.
.	.	.	.	.	.	.	.	.	.	.	.	.	.	.	.	.	.	.	.	.	.	.	.	.	.	.	.	.	.	16aa'\JJ	.
!	!LO:TX:b:t=pizz	!	!	!	!	!	!	!	!	!	!	!	!	!	!LO:TX:b:t=pizz&colon;	!	!LO:TX:b:t=pizz&colon;	!	!	!	!	!	!	!	!	!	!	!	!	!	!
.	8r	.	.	.	.	.	.	.	.	.	.	.	8r	.	8r	.	8r	.	.	.	8r	.	.	.	.	8r	.	.	.	16ddd'\LL	.
.	.	.	.	.	.	.	.	.	.	.	.	.	.	.	.	.	.	.	.	.	.	.	.	.	.	.	.	.	.	16dd'\	.
.	8D\L	.	.	.	.	.	.	.	.	.	.	.	8d\L	.	8f#/L	.	8a/L	.	.	.	8D\L 8A	.	8dd/L	8dd\L	.	8f#/L 8a	.	.	.	16ddd'\	.
.	.	.	.	.	.	.	.	.	.	.	.	.	.	.	.	.	.	.	.	.	.	.	.	.	.	.	.	.	.	16dd'\JJ	.
.	8G\	.	.	.	.	.	.	.	.	.	.	.	8d\	.	8g/	.	8b/	.	.	.	8G\ 8B	.	8dd/	8dd\	.	8g/ 8b	.	.	.	16bb'\LL	.
.	.	.	.	.	.	.	.	.	.	.	.	.	.	.	.	.	.	.	.	.	.	.	.	.	.	.	.	.	.	16gg'\	.
.	8G\J	.	.	.	.	.	.	.	.	.	.	.	8d\J	.	8g/J	.	8b/J	.	.	.	8G\J 8B	.	8dd/J	8dd\J	.	8g/J 8b	.	.	.	16bb'\	.
.	.	.	.	.	.	.	.	.	.	.	.	.	.	.	.	.	.	.	.	.	.	.	.	.	.	.	.	.	.	16ggg'\JJ	.
!!LO:PB:g=original
=8	=8	=8	=8	=8	=8	=8	=8	=8	=8	=8	=8	=8	=8	=8	=8	=8	=8	=8	=8	=8	=8	=8	=8	=8	=8	=8	=8	=8	=8	=8	=8
*	*	*	*	*	*	*	*	*	*	*	*	*	*	*	*	*	*	*	*	*	*	*	*	*	*	*^	*	*	*	*	*
2.ryy	4D\	.	2.r	.	.	2.r	.	.	2.r	2.r	.	.	4d\	.	4f#/	.	4a/	.	2.r	.	4D\ 4A	.	4.dd/	4.dd\	.	4a/	4f#\	.	2.r	.	16fff#'\LL	.
.	.	.	.	.	.	.	.	.	.	.	.	.	.	.	.	.	.	.	.	.	.	.	.	.	.	.	.	.	.	.	16dd'\	.
.	.	.	.	.	.	.	.	.	.	.	.	.	.	.	.	.	.	.	.	.	.	.	.	.	.	.	.	.	.	.	16ff#'\	.
.	.	.	.	.	.	.	.	.	.	.	.	.	.	.	.	.	.	.	.	.	.	.	.	.	.	.	.	.	.	.	16aa'\JJ	.
.	8r	.	.	.	.	.	.	.	.	.	.	.	8r	.	8r	.	8r	.	.	.	8r	.	.	.	.	8r	4rAyy	.	.	.	16ddd'\LL	.
.	.	.	.	.	.	.	.	.	.	.	.	.	.	.	.	.	.	.	.	.	.	.	.	.	.	.	.	.	.	.	16dd'\	.
.	8D\L	.	.	.	.	.	.	.	.	.	.	.	8d\L	.	8f#/L	.	8a/L	.	.	.	8D\L 8A	.	8dd/L	8dd\L	.	8f#/L 8a	.	.	.	.	16ddd'\	.
.	.	.	.	.	.	.	.	.	.	.	.	.	.	.	.	.	.	.	.	.	.	.	.	.	.	.	.	.	.	.	16dd'\JJ	.
.	8G\	.	.	.	.	.	.	.	.	.	.	.	8d\	.	8g/	.	8b/	.	.	.	8G\ 8B	.	8dd/	8dd\	.	8g/ 8b	4rAyy	.	.	.	16bb'\LL	.
.	.	.	.	.	.	.	.	.	.	.	.	.	.	.	.	.	.	.	.	.	.	.	.	.	.	.	.	.	.	.	16gg'\	.
.	8G\J	.	.	.	.	.	.	.	.	.	.	.	8d\J	.	8g/J	.	8b/J	.	.	.	8G\J 8B	.	8dd/J	8dd\J	.	8g/J 8b	.	.	.	.	16bb'\	.
.	.	.	.	.	.	.	.	.	.	.	.	.	.	.	.	.	.	.	.	.	.	.	.	.	.	.	.	.	.	.	16ggg'\JJ	.
*	*	*	*	*	*	*	*	*	*	*	*	*	*	*	*	*	*	*	*	*	*	*	*	*	*	*v	*v	*	*	*	*	*
=9	=9	=9	=9	=9	=9	=9	=9	=9	=9	=9	=9	=9	=9	=9	=9	=9	=9	=9	=9	=9	=9	=9	=9	=9	=9	=9	=9	=9	=9	=9	=9
2.ryy	8D\	.	2.r	.	.	2.r	.	.	2.r	2.r	.	.	8d\	.	8f#/	.	8a/	.	2.r	.	8D\ 8A	.	8dd/	8dd\	.	8f#/ 8a	.	2.r	.	8fff#\	.
!	!	!	!	!	!	!	!	!	!	!	!	!	!	!	!	!	!LO:TX:a:t=l'arco	!	!	!	!	!	!	!	!	!	!	!	!	!	!
.	16r	.	.	.	.	.	.	.	.	.	.	.	16r	.	16r	.	16r	.	.	.	8r	.	8r	8rAyy	.	8r	.	.	.	8r	.
.	16D|>\	.	.	.	.	.	.	.	.	.	.	.	16d|>\	.	16f#|</	.	16dd|>\	.	.	.	.	.	.	.	.	.	.	.	.	.	.
.	8C'/L	.	.	.	.	.	.	.	.	.	.	.	8c'\L	.	8g'/L	.	8ee'\L	.	.	.	4r	.	4r	4rAyy	.	4r	.	.	.	4r	.
.	8AA'/J	.	.	.	.	.	.	.	.	.	.	.	8e'\J	.	8a'/J	.	8cc'\J	.	.	.	.	.	.	.	.	.	.	.	.	.	.
.	4D'/	.	.	.	.	.	.	.	.	.	.	.	4d'\	.	4f#'/	.	4a\	.	.	.	4r	.	4r	4rAyy	.	4r	.	.	.	4r	.
=10	=10	=10	=10	=10	=10	=10	=10	=10	=10	=10	=10	=10	=10	=10	=10	=10	=10	=10	=10	=10	=10	=10	=10	=10	=10	=10	=10	=10	=10	=10	=10
2.ryy	4D\ 4d	f	4r	.	.	4r	.	.	2.r	4r	.	.	4D/ 4A 4f#	f	4d/ 4a	.	4A/ 4f# 4dd	f	4f#X/ 4a	.	4D\ 4A	f	4dd/	4dd\	.	4f#/ 4a	f	4dd\	f	4ddd\	f
.	4r	.	4D\	.	f	4d\	Wszech-	.	.	4dd\	Wszech-	.	4r	.	4r	.	4r	.	4r	.	4r	.	4r	4rAyy	.	4r	.	4r	.	4r	.
.	4r	.	8E\	.	.	8c\	-moc-	.	.	8cc\	-moc-	.	4r	.	4r	.	4r	.	4r	.	4r	.	4r	4rAyy	.	4r	.	4r	.	4r	.
.	.	.	8F#\	.	.	8d\	-ny	.	.	8a\	-ny	.	.	.	.	.	.	.	.	.	.	.	.	.	.	.	.	.	.	.	.
*	*	*	*	*	*	*	*	*	*	*	*	*	*	*	*	*	*	*	*	*	*	*	*v	*v	*	*	*	*	*	*	*
=11||	=11||	=11||	=11||	=11||	=11||	=11||	=11||	=11||	=11||	=11||	=11||	=11||	=11||	=11||	=11||	=11||	=11||	=11||	=11||	=11||	=11||	=11||	=11||	=11||	=11||	=11||	=11||	=11||	=11||	=11||
!	!	!	!LO:TX:t=P:problem=mixed beam	!	!	!	!	!	!	!	!	!	!	!	!	!	!	!	!	!	!	!	!	!	!	!	!	!	!	!
2.ryy	8GG|/	p	8.G\L	.	.	(8.d\L	Wszech-	.	2.ryy	(8.b/L	Wszech-	.	2.r	.	8d/	.	8b/	p	2.r	.	2.r	.	2.r	.	2.r	.	2.r	.	2.r	.
.	8r	.	.	.	.	.	.	.	.	.	.	.	.	.	8r	.	8r	.	.	.	.	.	.	.	.	.	.	.	.	.
.	.	.	16GG/Jk	.	.	32e\LL	.	.	.	32cc/LL	.	.	.	.	.	.	.	.	.	.	.	.	.	.	.	.	.	.	.	.
.	.	.	.	.	.	32d\JJJ)	.	.	.	32b/JJJ)	.	.	.	.	.	.	.	.	.	.	.	.	.	.	.	.	.	.	.	.
.	8C|/	.	4C/	.	.	4c\	-moc-	.	.	4a/	-moc-	.	.	.	8c/	.	8a/	.	.	.	.	.	.	.	.	.	.	.	.	.
.	8r	.	.	.	.	.	.	.	.	.	.	.	.	.	8r	.	8r	.	.	.	.	.	.	.	.	.	.	.	.	.
.	8C#X|/	.	4C#X/	.	.	4B\	-ny	.	.	4g/	-ny	.	.	.	8B/	.	8g/	.	.	.	.	.	.	.	.	.	.	.	.	.
.	8r	.	.	.	.	.	.	.	.	.	.	.	.	.	8r	.	8r	.	.	.	.	.	.	.	.	.	.	.	.	.
=12	=12	=12	=12	=12	=12	=12	=12	=12	=12	=12	=12	=12	=12	=12	=12	=12	=12	=12	=12	=12	=12	=12	=12	=12	=12	=12	=12	=12	=12	=12
*	*	*	*2\right	*	*	*	*	*	*	*	*	*	*	*	*	*	*	*	*	*	*	*	*	*	*	*	*	*	*	*
*	*	*	*	*	*	*	*	*	*	*	*	*	*	*	*	*	*	*	*	*	*	*	*^	*	*^	*	*	*	*	*
2.ryy	8D\	.	2D\	.	.	((8B\L	Pa-	.	2.ryy	(8g/L	Pa-	.	4r	.	8B/	.	8g/	.	2.r;	.	4r	.	4r	4rcyy	.	4r	4rcyy	.	2.r;	.	2.r;	.
.	8r	.	.	.	.	32c\LL	.	.	.	32a/LL	.	.	.	.	8r	.	8r	.	.	.	.	.	.	.	.	.	.	.	.	.	.	.
.	.	.	.	.	.	32B\	.	.	.	32g/	.	.	.	.	.	.	.	.	.	.	.	.	.	.	.	.	.	.	.	.	.	.
.	.	.	.	.	.	32A\	.	.	.	32f#/	.	.	.	.	.	.	.	.	.	.	.	.	.	.	.	.	.	.	.	.	.	.
.	.	.	.	.	.	32B\JJJ)	.	.	.	32g/JJJ	.	.	.	.	.	.	.	.	.	.	.	.	.	.	.	.	.	.	.	.	.	.
.	4r	.	.	.	.	8.d\L	.	.	.	8.b/L	.	.	4r	.	4r	.	4r	.	.	.	4r	p	4r	4rcyy	p	4r	4rcyy	p	.	.	.	.
.	.	.	.	.	.	.	.	.	.	.	.	.	.	.	.	.	.	.	.	.	.	.	.	.	.	.	.	.	.	.	.	.
.	.	.	.	.	.	16c\Jk)	.	.	.	16a/Jk)	.	.	.	.	.	.	.	.	.	.	.	.	.	.	.	.	.	.	.	.	.	.
.	4D;\	.	4D;\	.	.	4A;\	-nie	.	.	4f#;/	-nie	.	4D;/ 4A	.	4d^;/	.	4f#^;/	.	.	.	4D^<;\ 4A	.	4dd;/	4dd\	.	4f#^<;/	4f#\	.	.	.	.	.
*	*	*	*	*	*	*	*	*	*	*	*	*	*	*	*	*	*	*	*	*	*	*	*v	*v	*	*	*	*	*	*	*	*
*	*	*	*	*	*	*	*	*	*	*	*	*	*	*	*	*	*	*	*	*	*	*	*	*	*v	*v	*	*	*	*	*
!!LO:PB:g=original
=13	=13	=13	=13	=13	=13	=13	=13	=13	=13	=13	=13	=13	=13	=13	=13	=13	=13	=13	=13	=13	=13	=13	=13	=13	=13	=13	=13	=13	=13	=13
2.ryy	8E\L	.	8E\	Wie-	.	8G/	.	.	2.ryy	8g/	Wie-	.	8e\L	.	8B/L	.	8g/L	.	2.ryy	.	2.ryy	.	2.ryy	.	2.ryy	.	2.ryy	.	2.ryy	.
.	8D\J	.	8D\	-ku-	.	8B/	.	.	.	8g/	-ku-	.	8e\J	.	8B/J	.	8g/J	.	.	.	.	.	.	.	.	.	.	.	.	.
.	8C#X\	.	4.C#X\	-i-	.	4.A/	.	.	.	4.a/	-i-	.	8r	.	8r	.	8r	.	.	.	.	.	.	.	.	.	.	.	.	.
.	8r	.	.	.	.	.	.	.	.	.	.	.	8e\	.	8A/	.	8a^/	.	.	.	.	.	.	.	.	.	.	.	.	.
.	8C#\	.	.	.	.	.	.	.	.	.	.	.	8r	.	8r	.	8r	.	.	.	.	.	.	.	.	.	.	.	.	.
.	8r	.	8C#\	-sty	.	8A/	.	.	.	8e/	-sty	.	8e\	.	8A/	.	8e/	.	.	.	.	.	.	.	.	.	.	.	.	.
=14	=14	=14	=14	=14	=14	=14	=14	=14	=14	=14	=14	=14	=14	=14	=14	=14	=14	=14	=14	=14	=14	=14	=14	=14	=14	=14	=14	=14	=14	=14
*	*^	*	*	*	*	*	*	*	*	*	*	*	*	*	*	*	*	*	*	*	*	*	*	*	*	*	*	*	*	*
2.ryy	[>4D\	4ryy	.	4D\	Bo-	.	(8.B\L	.	.	2.ryy	(8.g/L	Bo-	.	[4d\	.	(4B/	.	(4g/	.	2.ryy	.	2.ryy	.	2.ryy	.	2.ryy	.	2.ryy	.	2.ryy	.
.	.	.	.	.	.	.	32c\LL	.	.	.	32a/LL	.	.	.	.	.	.	.	.	.	.	.	.	.	.	.	.	.	.	.	.
.	.	.	.	.	.	.	32B\JJJ)	.	.	.	32g/JJJ)	.	.	.	.	.	.	.	.	.	.	.	.	.	.	.	.	.	.	.	.
.	8D\]	4ryy	.	8D\	-że	.	8A\	.	.	.	8f#/	-że	.	8d\]	.	8A/)	.	8f#/)	.	.	.	.	.	.	.	.	.	.	.	.	.
!	!LO:TX:a:t=v&colon;c&colon;	!	!	!	!	!	!	!	!	!	!	!	!	!	!	!	!	!	!	!	!	!	!	!	!	!	!	!	!	!	!
.	(8d/L	.	.	(16d\LL	Któż	.	8r	.	.	.	8r	.	.	8r	.	8r	p	8r	p	.	.	.	.	.	.	.	.	.	.	.	.
.	.	.	.	32e\L	.	.	.	.	.	.	.	.	.	.	.	.	.	.	.	.	.	.	.	.	.	.	.	.	.	.	.
.	.	.	.	32d\JJJ)	.	.	.	.	.	.	.	.	.	.	.	.	.	.	.	.	.	.	.	.	.	.	.	.	.	.	.
.	8c/)	8r	p	8c\	się	.	4r	.	.	.	4r	.	.	(4A/	.	((4c/ 4e	.	(4f#/	.	.	.	.	.	.	.	.	.	.	.	.	.
.	8A/J	8D\	.	8A\	Twym	.	.	.	.	.	.	.	.	.	.	.	.	.	.	.	.	.	.	.	.	.	.	.	.	.	.
=15	=15	=15	=15	=15	=15	=15	=15	=15	=15	=15	=15	=15	=15	=15	=15	=15	=15	=15	=15	=15	=15	=15	=15	=15	=15	=15	=15	=15	=15	=15	=15
2.ryy	16B/LL	8GG\L	.	4B\	spra-	.	4r	.	.	2.ryy	2.r	.	.	8G/L)	.	8B/L)) 8d	.	8g/L)	.	2.ryy	.	2.ryy	.	2.ryy	.	2.ryy	.	2.ryy	.	2.ryy	.
.	16G/	.	.	.	.	.	.	.	.	.	.	.	.	.	.	.	.	.	.	.	.	.	.	.	.	.	.	.	.	.	.
.	16D/	8G\	.	.	.	.	.	.	.	.	.	.	.	8G'/	.	8B'/ 8d	.	8g'/	.	.	.	.	.	.	.	.	.	.	.	.	.
.	16G/JJ	.	.	.	.	.	.	.	.	.	.	.	.	.	.	.	.	.	.	.	.	.	.	.	.	.	.	.	.	.	.
.	8B/	8GG\J	.	8B\	-wom	.	8r	.	.	.	.	.	.	8G'/J	.	8B'/J 8d	.	8g'/J	.	.	.	.	.	.	.	.	.	.	.	.	.
.	(8B/L	8r	.	(16B\LL	Któż	.	(16d\LL	Któż	.	.	.	.	.	(8d/L	.	8r	p	8r	.	.	.	.	.	.	.	.	.	.	.	.	.
.	.	.	.	32c\L	.	.	32e\L	.	.	.	.	.	.	.	.	.	.	.	.	.	.	.	.	.	.	.	.	.	.	.	.
.	.	.	.	32B\JJJ)	.	.	32d\JJJ)	.	.	.	.	.	.	.	.	.	.	.	.	.	.	.	.	.	.	.	.	.	.	.	.
.	8A/)	4D\	.	8A\	się	.	8c\	się	.	.	.	.	.	8c/	.	((4c/ 4e	.	(4f#/	.	.	.	.	.	.	.	.	.	.	.	.	.
.	8F#/J	.	.	8F#\	Twym	.	8A\	Twym	.	.	.	.	.	8A/J)	.	.	.	.	.	.	.	.	.	.	.	.	.	.	.	.	.
=16	=16	=16	=16	=16	=16	=16	=16	=16	=16	=16	=16	=16	=16	=16	=16	=16	=16	=16	=16	=16	=16	=16	=16	=16	=16	=16	=16	=16	=16	=16	=16
*	*	*	*	*	*	*	*	*	*	*	*	*	*	*tremolo	*	*	*	*	*	*	*	*	*	*	*	*	*	*	*	*	*
2.ryy	16G/LL	8GG\L	.	4G\	spra-	.	4B\	spra-	.	2.ryy	4r	.	.	8G/L	.	8B/L)) 8d	.	8g/L)	.	2.ryy	.	2.ryy	.	2.ryy	.	2.ryy	.	2.ryy	.	2.ryy	.
.	16D/	.	.	.	.	.	.	.	.	.	.	.	.	.	.	.	.	.	.	.	.	.	.	.	.	.	.	.	.	.	.
.	16BB/	8G\J	.	.	.	.	.	.	.	.	.	.	.	8G/	.	8B'/ 8d	.	8g'/	.	.	.	.	.	.	.	.	.	.	.	.	.
.	16D/JJ	.	.	.	.	.	.	.	.	.	.	.	.	.	.	.	.	.	.	.	.	.	.	.	.	.	.	.	.	.	.
.	8GG/	8GG\	.	8G\	-wom	.	8B\	-wom	.	.	8r	.	.	8G/J	.	8B'/J 8d	.	8g'/J	.	.	.	.	.	.	.	.	.	.	.	.	.
*	*	*	*	*	*	*	*	*	*	*	*	*	*	*Xtremolo	*	*	*	*	*	*	*	*	*	*	*	*	*	*	*	*	*
!	!	!	!	!	!	!	!	!	!	!	!	!	!	!	!	!	!	!	!LO:HP:a	!	!	!	!	!	!	!	!	!	!	!	!
.	8G/L	8GG\L	.	8G\	Któż	.	8B\	.	.	.	(16g/LL	Któż	.	8d\L	<	8B/L	.	(8g/L	<	.	.	.	.	.	.	.	.	.	.	.	.
.	.	.	.	.	.	.	.	.	.	.	32a/L	.	.	.	.	.	.	.	.	.	.	.	.	.	.	.	.	.	.	.	.
.	.	.	.	.	.	.	.	.	.	.	32g/JJJ)	.	.	.	.	.	.	.	.	.	.	.	.	.	.	.	.	.	.	.	.
.	8A/	8AA\	.	8A\	się	.	8c\	.	.	.	8f#/	się	.	8d\	.	8c/	.	8f#/)	.	.	.	.	.	.	.	.	.	.	.	.	.
.	8B/J	8BB\J	.	8B\	Twym	.	8d\	.	.	.	8g/	Twym	.	8d\J	[[	8d/J	.	8g/J	[[	.	.	.	.	.	.	.	.	.	.	.	.
*	*v	*v	*	*	*	*	*	*	*	*	*	*	*	*	*	*	*	*	*	*	*	*	*	*	*	*	*	*	*	*	*
!!LO:PB:g=original
=17	=17	=17	=17	=17	=17	=17	=17	=17	=17	=17	=17	=17	=17	=17	=17	=17	=17	=17	=17	=17	=17	=17	=17	=17	=17	=17	=17	=17	=17	=17
*	*	*	*	*	*	*	*	*	*	*	*	*	*	*	*	*	*	*	*	*	*	*	*^	*	*^	*	*	*	*	*
2.ryy	8C/	.	8.c\	spra-	.	8.e\	.	.	2.ryy	8.e/	spra-	.	8c\L	.	8c/L	.	8e/L	.	2.r	.	4r	.	8ee/	8cc\	.	4r	4rcyy	.	4r	.	4r	.
.	8r	f	.	.	.	.	.	.	.	.	.	.	8c\J	.	8c/J	.	8e^/J	.	.	.	.	.	8r	8rcyy	.	.	.	.	.	.	.	.
.	.	.	16C\ 16c	-wom	.	16e\	.	.	.	16e/	-wom	.	.	.	.	.	.	.	.	.	.	.	.	.	.	.	.	.	.	.	.	.
.	8C/	.	8.C/	wy-	.	8.e\	.	.	.	8.ee\	wy-	.	8r	f	8r	.	8r	f	.	.	8C^<\ 8c	.	8ee/	8cc^\	.	8ee/	8cc^\	.	8gg\	.	8eee^<\	.
.	8r	.	.	.	.	.	.	.	.	.	.	.	8c\	.	8c/ 8e	.	8ee\	.	.	.	8r	.	8r	8rcyy	.	8r	8rcyy	.	8r	.	8r	.
.	.	.	16C/	-dzi-	.	16e\	.	.	.	16ee\	-dzi-	.	.	.	.	.	.	.	.	.	.	.	.	.	.	.	.	.	.	.	.	.
.	8C/L	.	8.C/	-wo-	.	8.e\	.	.	.	(16dd\LL	-wo-	.	8r	.	8r	.	(16dd\LL	.	.	.	4r	.	8r	8rcyy	.	4r	4rcyy	.	4r	.	4r	.
.	.	.	.	.	.	.	.	.	.	16cc\JJ)	.	.	.	.	.	.	16cc\JJ)	.	.	.	.	.	.	.	.	.	.	.	.	.	.	.
.	8C#X/J	.	.	.	.	.	.	.	.	(16b/LL	-wać	.	8c#X\	.	8e/	.	(16b\LL	.	.	.	.	.	8ee/	8cc#X\	.	.	.	.	.	.	.	.
.	.	.	16C#X/	-wać	.	16e\	.	.	.	16a/JJ)	.	.	.	.	.	.	16a\JJ)	.	.	.	.	.	.	.	.	.	.	.	.	.	.	.
=18	=18	=18	=18	=18	=18	=18	=18	=18	=18	=18	=18	=18	=18	=18	=18	=18	=18	=18	=18	=18	=18	=18	=18	=18	=18	=18	=18	=18	=18	=18	=18	=18
2.ryy	4D\	.	4D^\	mo-	.	(4g\	.	.	2.ryy	(8.b\L	mo-	.	[4d\	.	(4g/	.	(4b\	.	2.r	.	2.r	.	4.dd/	4.dd\	.	(4b/	4g\	.	2.r	.	2.r	.
.	.	.	.	.	.	.	.	.	.	32cc\LL	.	.	.	.	.	.	.	.	.	.	.	.	.	.	.	.	.	.	.	.	.	.
.	.	.	.	.	.	.	.	.	.	32b\JJJ)	.	.	.	.	.	.	.	.	.	.	.	.	.	.	.	.	.	.	.	.	.	.
.	8D\	.	8D\	-że	.	8f#\)	.	.	.	8a\	-że	.	8d\]	.	8f#/)	.	8a\)	.	.	.	.	.	.	.	.	8a/)	8f#\	.	.	.	.	.
.	8r	p	8r	.	.	8r	.	.	.	(16dd\LL	Kto	.	8r	p	8r	p	(8dd\L	p	.	.	.	.	8r	8reyy	.	8r	8rAyy	.	.	.	.	.
.	.	.	.	.	.	.	.	.	.	32ee\L	.	.	.	.	.	.	.	.	.	.	.	.	.	.	.	.	.	.	.	.	.	.
.	.	.	.	.	.	.	.	.	.	32dd\JJJ)	.	.	.	.	.	.	.	.	.	.	.	.	.	.	.	.	.	.	.	.	.	.
.	4D\	.	4r	.	.	4r	.	.	.	8cc\	ro-	.	4A/ 4d	.	4c/ 4f#	.	8cc\)	.	.	.	.	.	4r	4reyy	.	4r	4rAyy	.	.	.	.	.
.	.	.	.	.	.	.	.	.	.	8a\	-zu-	.	.	.	.	.	8a|>\J	.	.	.	.	.	.	.	.	.	.	.	.	.	.	.
*	*	*	*	*	*	*	*	*	*	*	*	*	*	*	*	*	*	*	*	*	*	*	*v	*v	*	*	*	*	*	*	*	*
*	*	*	*	*	*	*	*	*	*	*	*	*	*	*	*	*	*	*	*	*	*	*	*	*	*v	*v	*	*	*	*	*
=19	=19	=19	=19	=19	=19	=19	=19	=19	=19	=19	=19	=19	=19	=19	=19	=19	=19	=19	=19	=19	=19	=19	=19	=19	=19	=19	=19	=19	=19	=19
*	*^	*	*	*	*	*	*	*	*	*	*	*	*	*	*	*	*	*	*	*	*	*	*	*	*	*	*	*	*	*
*	*	*	*	*	*	*	*	*	*	*	*	*	*	*tremolo	*	*tremolo	*	*	*	*	*	*	*	*	*	*	*	*	*	*	*
!	!LO:TX:t=P:problem=mixed beam	!	!	!	!	!	!	!	!	!	!	!	!	!	!	!	!	!	!	!	!	!	!	!	!	!	!	!	!	!	!
2.ryy	8GG/L	4rAAAyy	.	2.r	.	.	4r	.	.	2.ryy	4b\	-mo-	.	8G/L 8d	.	(8B'/L 8g	.	(16b/LL	.	2.r	.	2.r	.	2.r	.	2.r	.	2.r	.	2.r	.
.	.	.	.	.	.	.	.	.	.	.	.	.	.	.	.	.	.	16g/	.	.	.	.	.	.	.	.	.	.	.	.	.
.	8G\	.	.	.	.	.	.	.	.	.	.	.	.	8G/ 8d	.	8B'/ 8g	.	16d/	.	.	.	.	.	.	.	.	.	.	.	.	.
.	.	.	.	.	.	.	.	.	.	.	.	.	.	.	.	.	.	16g/JJ	.	.	.	.	.	.	.	.	.	.	.	.	.
.	8GG/J	8rAAAyy	.	.	.	.	8r	.	.	.	8b\	-wi	.	8G/J 8d	.	8B'/J) 8g	.	8b/)	.	.	.	.	.	.	.	.	.	.	.	.	.
*	*	*	*	*	*	*	*	*	*	*	*	*	*	*Xtremolo	*	*Xtremolo	*	*	*	*	*	*	*	*	*	*	*	*	*	*	*
.	8d/L	8r	.	.	.	.	(16d\LL	Kto	.	.	(16b\LL	Kto	.	8r	.	8r	.	8b|</L	.	.	.	.	.	.	.	.	.	.	.	.	.
.	.	.	.	.	.	.	32e\L	.	.	.	32cc\L	.	.	.	.	.	.	.	.	.	.	.	.	.	.	.	.	.	.	.	.
.	.	.	.	.	.	.	32d\JJJ)	.	.	.	32b\JJJ)	.	.	.	.	.	.	.	.	.	.	.	.	.	.	.	.	.	.	.	.
.	8c/	4D\	.	.	.	.	8c\	ro-	.	.	8a/	ro-	.	4A/ 4d	.	4c/ 4f#	.	(8a/	.	.	.	.	.	.	.	.	.	.	.	.	.
.	8A/J	.	.	.	.	.	8A\	-zu-	.	.	8f#/	-zu-	.	.	.	.	.	8f#/J)	.	.	.	.	.	.	.	.	.	.	.	.	.
*	*v	*v	*	*	*	*	*	*	*	*	*	*	*	*	*	*	*	*	*	*	*	*	*	*	*	*	*	*	*	*	*
=20	=20	=20	=20	=20	=20	=20	=20	=20	=20	=20	=20	=20	=20	=20	=20	=20	=20	=20	=20	=20	=20	=20	=20	=20	=20	=20	=20	=20	=20	=20
*	*	*	*	*	*	*	*	*	*	*	*	*	*tremolo	*	*tremolo	*	*	*	*	*	*	*	*	*	*	*	*	*	*	*
2.ryy	(8G\L	.	4r	.	.	4B\	-mo-	.	2.ryy	4g/	-mo-	.	8G/L 8d	.	(8B'/L 8g	.	(16g/LL	.	2.r	.	2.r	.	2.r	.	2.r	.	2.r	.	2.r	.
.	.	.	.	.	.	.	.	.	.	.	.	.	.	.	.	.	16d/	.	.	.	.	.	.	.	.	.	.	.	.	.
.	8D\	.	.	.	.	.	.	.	.	.	.	.	8G/ 8d	.	8B'/ 8g	.	16B/	.	.	.	.	.	.	.	.	.	.	.	.	.
.	.	.	.	.	.	.	.	.	.	.	.	.	.	.	.	.	16d/JJ	.	.	.	.	.	.	.	.	.	.	.	.	.
.	8GG\J)	.	8r	.	.	8B\	-wi	.	.	8g/	-wi	.	8G/J 8d	.	8B'/J) 8g	.	8g/)	.	.	.	.	.	.	.	.	.	.	.	.	.
*	*	*	*	*	*	*	*	*	*	*	*	*	*Xtremolo	*	*Xtremolo	*	*	*	*	*	*	*	*	*	*	*	*	*	*	*
.	8GG/L	.	8GG/	Kto	.	8r	.	.	.	8r	.	.	8G/L	.	8r	.	8r	.	.	.	.	.	.	.	.	.	.	.	.	.
.	8E/	.	8E\	ro-	.	4r	.	.	.	4r	.	.	8e/	.	4r	.	4r	.	.	.	.	.	.	.	.	.	.	.	.	.
.	8D/J	.	8D\	-zu-	.	.	.	.	.	.	.	.	8d/J	.	.	.	.	.	.	.	.	.	.	.	.	.	.	.	.	.
!!LO:PB:g=original
=21	=21	=21	=21	=21	=21	=21	=21	=21	=21	=21	=21	=21	=21	=21	=21	=21	=21	=21	=21	=21	=21	=21	=21	=21	=21	=21	=21	=21	=21	=21
*	*	*	*	*	*	*	*	*	*	*	*	*	*	*	*	*	*	*	*	*	*2\right	*	*	*	*	*	*	*	*	*
!	!LO:SIC:s:v=C#	!	!	!	!	!	!	!	!	!	!	!	!	!	!	!	!	!	!	!	!	!	!	!	!	!	!	!	!	!
2.ryy	2.C/	.	8.C#X/	-mo-	.	8r	.	.	2.ryy	8r	.	.	2.c#X\	.	8r	.	8r	.	2.r	.	2.C#X^<\ 2.c#X	.	2.r	.	2.r	.	8r	.	8r	.
.	.	.	.	.	.	4g^\	.	.	.	4b^>/	Któ-	.	.	.	4g^</	.	4b^/	.	.	.	.	.	.	.	.	.	4gg^<\	.	4bb^<\	.
.	.	.	16C#/	-wi	.	.	.	.	.	.	.	.	.	.	.	.	.	.	.	.	.	.	.	.	.	.	.	.	.	.
.	.	.	8C#/	Któ-	.	.	.	.	.	.	.	.	.	.	.	.	.	.	.	.	.	.	.	.	.	.	.	.	.	.
.	.	.	8C#/	-rym	.	8g\	.	.	.	8b/	-rym	.	.	.	8g/L	.	8b/L	.	.	.	.	.	.	.	.	.	8gg\L	.	8bb\L	.
.	.	.	8.C#/	nie	.	8f#\	.	.	.	8a/	nie	.	.	.	8f#/	.	8a/	.	.	.	.	.	.	.	.	.	8ff#\	.	8aa\	.
.	.	.	.	.	.	8e\	.	.	.	8g/	zmie-	.	.	.	8e/J	.	8g/J	.	.	.	.	.	.	.	.	.	8ee\J	.	8gg\J	.
.	.	.	16C#/	zmie-	.	.	.	.	.	.	.	.	.	.	.	.	.	.	.	.	.	.	.	.	.	.	.	.	.	.
=22	=22	=22	=22	=22	=22	=22	=22	=22	=22	=22	=22	=22	=22	=22	=22	=22	=22	=22	=22	=22	=22	=22	=22	=22	=22	=22	=22	=22	=22	=22
!	!	!	!	!	!	!	!	!LO:DY:a	!	!	!	!LO:DY:a	!	!	!	!	!	!	!	!	!	!	!	!	!	!	!	!	!	!
2.ryy	8D\	.	8D\	-rzo-	.	8d\	.	f	2.ryy	8f#/	-rzo-	f	8d\	.	8d/	.	8f#/	.	2.r	.	8D\ 8d	.	2.r	.	4r	.	8dd\	.	16ff#\LL	.
.	.	.	.	.	.	.	.	.	.	.	.	.	.	.	.	.	.	.	.	.	.	.	.	.	.	.	.	.	16aa\	.
.	8r	.	8F#\	-na	.	8d\	.	.	.	8a/	-na	.	8r	.	8r	.	8r	.	.	.	8r	.	.	.	.	.	8r	.	16ddd\	.
.	.	.	.	.	.	.	.	.	.	.	.	.	.	.	.	.	.	.	.	.	.	.	.	.	.	.	.	.	16aa\JJ	.
!	!LO:TX:b:t=pizz	!	!	!	!	!	!	!	!	!	!	!	!	!	!	!	!LO:TX:b:t=pizz	!	!	!	!	!	!	!	!	!	!	!	!	!
.	8r	.	4F#\	zie-	.	4d\	.	.	.	(8dd\L	Zie-	.	8r	.	8r	.	8r	.	.	.	8r	.	.	.	8r	.	8r	.	16dd\LL	.
.	.	.	.	.	.	.	.	.	.	.	.	.	.	.	.	.	.	.	.	.	.	.	.	.	.	.	.	.	16aa\	.
.	8F#\L	.	.	.	.	.	.	.	.	8a\J)	.	.	8d\L	.	8d/L	.	8a/L	.	.	.	8F#\L	.	.	.	8d/L 8a	.	8dd\	.	16ddd\	.
.	.	.	.	.	.	.	.	.	.	.	.	.	.	.	.	.	.	.	.	.	.	.	.	.	.	.	.	.	16aa\JJ	.
.	8G\	.	8G\	-mia	.	8e\	.	.	.	8g/	-mia	.	8B\	.	8e/	.	8g/	.	.	.	8G\	.	.	.	8e/ 8g	.	8b\L	.	16gg\LL	.
.	.	.	.	.	.	.	.	.	.	.	.	.	.	.	.	.	.	.	.	.	.	.	.	.	.	.	.	.	16ee\	.
.	8A\J	.	8A\	stwo-	.	8c#X\	.	.	.	8e/	stwo-	.	8A\J	.	8c#X/J	.	8e/J	.	.	.	8A\J	.	.	.	8e/J 8g	.	8cc#X\J	.	16aa\	.
.	.	.	.	.	.	.	.	.	.	.	.	.	.	.	.	.	.	.	.	.	.	.	.	.	.	.	.	.	16gg\JJ	.
=23	=23	=23	=23	=23	=23	=23	=23	=23	=23	=23	=23	=23	=23	=23	=23	=23	=23	=23	=23	=23	=23	=23	=23	=23	=23	=23	=23	=23	=23	=23
2.ryy	8D\	.	8D\	-rzo-	.	8d\	.	.	2.ryy	8f#/	-rzo-	.	8A/	.	8d/	.	8f#/	.	2.r	.	8D\	.	2.r	.	8d/ 8f#	.	8dd\	.	16ff#\LL	.
.	.	.	.	.	.	.	.	.	.	.	.	.	.	.	.	.	.	.	.	.	.	.	.	.	.	.	.	.	16aa\	.
.	8r	.	8F#\	-na	.	8d\	.	.	.	8a/	-na	.	8r	.	8r	.	8r	.	.	.	8r	.	.	.	8r	.	8r	.	16ddd\	.
.	.	.	.	.	.	.	.	.	.	.	.	.	.	.	.	.	.	.	.	.	.	.	.	.	.	.	.	.	16aa\JJ	.
!	!	!	!	!	!	!	!	!	!	!	!	!	!	!	!	!	!LO:TX:b:t=l'arco	!	!	!	!	!	!	!	!	!	!	!	!	!
.	8r	.	4F#\	Zie-	.	4d\	.	.	.	(8dd\L	zie-	.	8r	.	8r	.	8r	.	.	.	8r	.	.	.	8r	.	8r	.	16dd\LL	.
.	.	.	.	.	.	.	.	.	.	.	.	.	.	.	.	.	.	.	.	.	.	.	.	.	.	.	.	.	16aa\	.
!	!LO:TX:b:t=l'arco	!	!	!	!	!	!	!	!	!	!	!	!	!	!	!	!	!	!	!	!	!	!	!	!	!	!	!	!	!
.	8F#\L	.	.	.	.	.	.	.	.	8a\J)	.	.	8d/L	.	8d/L	.	8a/L	.	.	.	8F#\L	.	.	.	8d/L 8a	.	8dd\	.	16ddd\	.
.	.	.	.	.	.	.	.	.	.	.	.	.	.	.	.	.	.	.	.	.	.	.	.	.	.	.	.	.	16aa\JJ	.
.	8G\	.	8G\	-mia	.	8e\	.	.	.	8g/	-mia	.	8B/	.	8e/	.	8g/	.	.	.	8G\	.	.	.	8e/ 8g	.	8b\L	.	16gg\LL	.
.	.	.	.	.	.	.	.	.	.	.	.	.	.	.	.	.	.	.	.	.	.	.	.	.	.	.	.	.	16ee\	.
.	8A\J	.	8A\	stwo-	.	8c#X\	.	.	.	8e/	stwo-	.	8A/J	.	8c#X/J	.	8e/J	.	.	.	8A\J	.	.	.	8e/J 8g	.	8cc#X\J	.	16aa\	.
.	.	.	.	.	.	.	.	.	.	.	.	.	.	.	.	.	.	.	.	.	.	.	.	.	.	.	.	.	16gg\JJ	.
=24	=24	=24	=24	=24	=24	=24	=24	=24	=24	=24	=24	=24	=24	=24	=24	=24	=24	=24	=24	=24	=24	=24	=24	=24	=24	=24	=24	=24	=24	=24
!	!	!	!	!	!	!	!	!	!	!	!	!	!LO:TX:t=P:problem=mixed beam	!	!	!	!	!	!	!	!	!	!	!	!	!	!	!	!	!
2.ryy	8D\L	.	8D\	-rzo-	.	8d\	.	.	2.ryy	8f#/	-rzo-	.	8A/L	.	8d/L	.	8f#/L	.	2.r	.	8D\L	.	2.r	.	8d/L 8f#	.	8dd\L	.	16ff#\LL	.
.	.	.	.	.	.	.	.	.	.	.	.	.	.	.	.	.	.	.	.	.	.	.	.	.	.	.	.	.	16aa\	.
.	8F#\	.	8F#\	-na,	.	8d\	.	.	.	8a/	-na,	.	8f#\J	.	8d/J	.	8a/J	.	.	.	8F#\J	.	.	.	8d/J	.	8a\J	.	16ddd\	.
.	.	.	.	.	.	.	.	.	.	.	.	.	.	.	.	.	.	.	.	.	.	.	.	.	.	.	.	.	16fff#\JJ	.
.	8F#\	.	8F#\	.	.	8d\	.	.	.	8dd\	Któ-	.	8f#\L	.	8d/L	.	8dd\L	.	.	.	8F#\L	.	.	.	8d/L	.	8dd\L	.	8ddd\	.
.	8G\	.	8G\	.	.	8B\	.	.	.	8ee\	-rym	.	8g\J	.	8b/J	.	8ee\J	.	.	.	8G\	.	.	.	8b/	.	8ee\	.	8r	.
.	8F#\	.	8F#\	.	.	8A#X\	.	.	.	8ff#\	nie	.	8f#\L	.	8a#X/L	.	8ff#\L	.	.	.	8F#\	.	.	.	8a#X/	.	8ff#\	.	4r	.
.	8F#\J	.	8F#\	.	.	8A#\	.	.	.	8cc\	zmie-	.	8f#\J	.	8a#/J	.	8cc\J	.	.	.	8F#\J	.	.	.	8a#/J	.	8dd\J	.	.	.
!!LO:PB:g=original
=25	=25	=25	=25	=25	=25	=25	=25	=25	=25	=25	=25	=25	=25	=25	=25	=25	=25	=25	=25	=25	=25	=25	=25	=25	=25	=25	=25	=25	=25	=25
*	*	*	*	*	*	*	*	*	*	*	*	*	*^	*	*	*	*	*	*	*	*^	*	*^	*	*^	*	*	*	*	*
!	!LO:TX:t=P:problem=mixed beam	!	!	!	!	!	!	!	!	!	!	!	!	!	!	!	!	!	!	!	!	!	!	!	!	!	!	!	!	!	!	!	!	!
2.ryy	8BB/L	.	8B\	.	.	8B\	.	.	2.ryy	8ee\	-rzo-	.	8.B/	4rBByy	.	8.b/	.	(8ee\L	.	4r	.	8.BB\ 8.B	4rCCyy	.	4r	4rAyy	.	8.b/	8.b\	.	(8ee\L	.	4r	.
.	16B\Jk	.	16B\	.	.	16B\	.	.	.	16dd\	-na	.	.	.	.	.	.	16dd\Jk)	.	.	.	.	.	.	.	.	.	.	.	.	16dd\Jk)	.	.	.
.	16r	.	16r	.	.	16r	.	.	.	16r	.	.	16r	.	.	16r	.	16r	.	.	.	16r	.	.	.	.	.	16r	16rAyy	.	16r	.	.	.
.	4E\	.	4E\	.	.	4B\	.	.	.	(8.gg\L	zie-	.	(4e/	2B\	.	(>4b/	sf >	(4e\ 4b 4gg	sf >	((4g/ 4b	sf >	2B/	(>4E\	sf >	4gg/	4ee\	sf >	(4ee/	(4b\	sf >	(4gg\	sf >	(4ggg\	sf >
.	.	.	.	.	.	.	.	.	.	32aa\LL	.	.	.	.	.	.	.	.	.	.	.	.	.	.	.	.	.	.	.	.	.	.	.	.
.	.	.	.	.	.	.	.	.	.	32gg\JJJ)	.	.	.	.	.	.	.	.	.	.	.	.	.	.	.	.	.	.	.	.	.	.	.	.
.	8.F#\L	.	8.F#\	.	.	8.A\	.	.	.	8.ff#\	-mia	.	8.d#X/L)	.	.	8.a/L)	]	8.ff#\L)	]	8.f#X/L)) 8.a	]	.	8.F#\L)	]	4r	4rAyy	]	8.dd#X/L)	8.a\L)	]	8.ff#\L)	]	8.fff#\L)	]
.	16G\Jk	.	16G\	.	.	16B\	.	.	.	16ee\	stwo-	.	16e/Jk	.	.	16g|</Jk	.	16ee|>\Jk	.	16e/Jk 16g	.	.	16G|>\Jk	.	.	.	.	16ee/Jk	16g\Jk	.	16ee\Jk	.	16eee|\Jk	.
*	*	*	*	*	*	*	*	*	*	*	*	*	*	*	*	*	*	*	*	*	*	*	*	*	*v	*v	*	*	*	*	*	*	*	*
*	*	*	*	*	*	*	*	*	*	*	*	*	*	*	*	*	*	*	*	*	*	*	*	*	*	*	*v	*v	*	*	*	*	*
=26	=26	=26	=26	=26	=26	=26	=26	=26	=26	=26	=26	=26	=26	=26	=26	=26	=26	=26	=26	=26	=26	=26	=26	=26	=26	=26	=26	=26	=26	=26	=26	=26
2.ryy	8A\	.	(2A\	.	.	(8A\L	.	.	2.ryy	8dd\L	-rzo-	.	8dn/	8A\	.	8f#|</L	.	8dd|</L	.	8d/ 8f#X	.	8A/	8A\	.	2.r	.	8f#/ 8ddn	.	8dd\	.	8ddd\	.
.	8r	.	.	.	.	8f#\	.	.	.	(8a\	.	.	8A/	8A\	.	(8f#/	p	(8a/	p	8r	.	8r	8rEEyy	.	.	.	8r	.	8r	.	8r	.
.	4r	p	.	.	.	8e#X\	.	.	.	8g#X\	.	.	4r	2A\	.	8e#X/	.	8g#X/	.	4r	.	4r	4rEEyy	.	.	.	4r	.	4r	.	4r	.
.	.	.	.	.	.	8f#\	.	.	.	8a\	.	.	.	.	.	8f#/	.	8a/	.	.	.	.	.	.	.	.	.	.	.	.	.	.
.	4AA/	.	4AA/)	.	.	8g\	.	.	.	8b\	.	.	[<4A/	.	p	8g/	.	8b/	.	4r	.	4r	4rEEyy	.	.	.	4r	.	4r	.	4r	.
.	.	.	.	.	.	8en\J)	.	.	.	8cc#X\J)	.	.	.	.	.	8en/J)	.	8cc#X/J)	.	.	.	.	.	.	.	.	.	.	.	.	.	.
*	*	*	*	*	*	*	*	*	*	*	*	*	*v	*v	*	*	*	*	*	*	*	*v	*v	*	*	*	*	*	*	*	*	*
=27	=27	=27	=27	=27	=27	=27	=27	=27	=27	=27	=27	=27	=27	=27	=27	=27	=27	=27	=27	=27	=27	=27	=27	=27	=27	=27	=27	=27	=27	=27
*	*	*	*	*	*	*	*	*	*	*	*	*	*	*	*	*	*	*	*	*	*	*	*^	*	*^	*	*	*	*	*
2.ryy	8D/	.	4D\	.	.	4d\	.	.	2.ryy	4dd\	-na	.	8A/]	.	8f#/	.	8dd\	.	2.r	.	8r	.	8r	8rcyy	.	8r	4rFyy	.	8r	.	16ff#\LL	.
.	.	.	.	.	.	.	.	.	.	.	.	.	.	.	.	.	.	.	.	.	.	.	.	.	.	.	.	.	.	.	16aa\	.
.	8r	.	.	.	.	.	.	.	.	.	.	.	8r	.	8r	.	8r	.	.	.	8F#'\ 8A	.	8dd|>/	8dd\	.	8d'>/ 8a	.	.	8a|>/	.	16ddd\	.
.	.	.	.	.	.	.	.	.	.	.	.	.	.	.	.	.	.	.	.	.	.	.	.	.	.	.	.	.	.	.	16fff#\JJ	.
!	!LO:TX:b:t=pizz	!	!	!	!	!	!	!	!	!	!	!	!	!	!	!	!LO:TX:b:t=pizz	!	!	!	!	!	!	!	!	!	!	!	!	!	!	!
.	8r	.	4r	.	.	4r	.	.	.	4r	.	.	8r	.	8r	.	8r	.	.	.	4F#'\ 4A	.	4dd|>/	4dd\	.	4d'>/ 4a	4rDyy	.	4dd|>/	.	16aaa\LL	.
.	.	.	.	.	.	.	.	.	.	.	.	.	.	.	.	.	.	.	.	.	.	.	.	.	.	.	.	.	.	.	16fff#\	.
.	8F#\L	.	.	.	.	.	.	.	.	.	.	.	8d/L	.	8d/L	.	8a/L	.	.	.	.	.	.	.	.	.	.	.	.	.	16ddd\	.
.	.	.	.	.	.	.	.	.	.	.	.	.	.	.	.	.	.	.	.	.	.	.	.	.	.	.	.	.	.	.	16aa\JJ	.
.	8G\	.	4r	.	.	4r	.	.	.	4r	.	.	8B/	.	8e/	.	8g/	.	.	.	(8G\L 8B	.	4ee/	4ee\	.	(>8b/L	4g\	.	(>8ee/L	.	16gg\LL	.
.	.	.	.	.	.	.	.	.	.	.	.	.	.	.	.	.	.	.	.	.	.	.	.	.	.	.	.	.	.	.	16ee\	.
.	8A\J	.	.	.	.	.	.	.	.	.	.	.	8A/J	.	8c#X/J	.	8e/J	.	.	.	8A\J)	.	.	.	.	8a/J)	.	.	8cc#X/J	.	16cc#X\	.
.	.	.	.	.	.	.	.	.	.	.	.	.	.	.	.	.	.	.	.	.	.	.	.	.	.	.	.	.	.	.	16aa\JJ	.
=28	=28	=28	=28	=28	=28	=28	=28	=28	=28	=28	=28	=28	=28	=28	=28	=28	=28	=28	=28	=28	=28	=28	=28	=28	=28	=28	=28	=28	=28	=28	=28	=28
*	*	*	*	*	*	*	*	*	*	*	*	*	*	*	*	*	*	*	*	*	*^	*	*	*	*	*	*	*	*	*	*	*
2.ryy	8D\	.	2.r	.	.	2.r	.	.	2.ryy	2.r	.	.	8A/	.	8d/	.	8f#/	.	2.r	.	8D'\L 8A	4rAAAyy	.	8r	8rA]	.	8a/L	8f#\L	.	8dd/L)	.	16ff#\LL	.
.	.	.	.	.	.	.	.	.	.	.	.	.	.	.	.	.	.	.	.	.	.	.	.	.	.	.	.	.	.	.	.	16aa\	.
.	8r	.	.	.	.	.	.	.	.	.	.	.	8r	.	8r	.	8r	.	.	.	8F#'\J 8A	.	.	8dd|>/	8dd\	.	8a'>/J	8d\J	.	8a'>/J	.	16ddd\	.
.	.	.	.	.	.	.	.	.	.	.	.	.	.	.	.	.	.	.	.	.	.	.	.	.	.	.	.	.	.	.	.	16fff#\JJ	.
.	8r	.	.	.	.	.	.	.	.	.	.	.	8r	.	8r	.	8r	.	.	.	4F#'\ 4A	4rAAAyy	.	4dd|>/	4dd\	.	4d'>/ 4a	4rBByy	.	4dd'>/	.	16aaa\LL	.
.	.	.	.	.	.	.	.	.	.	.	.	.	.	.	.	.	.	.	.	.	.	.	.	.	.	.	.	.	.	.	.	16fff#\	.
.	8F#\L	.	.	.	.	.	.	.	.	.	.	.	8d/L	.	8d/L	.	8a/L	.	.	.	.	.	.	.	.	.	.	.	.	.	.	16ddd\	.
.	.	.	.	.	.	.	.	.	.	.	.	.	.	.	.	.	.	.	.	.	.	.	.	.	.	.	.	.	.	.	.	16aa\JJ	.
.	8G\	.	.	.	.	.	.	.	.	.	.	.	8B/	.	8e/	.	8g/	.	.	.	(8B/L	8G\L	.	4ee/	4ee\	.	(8b/L	4g\	.	(>8ee/L	.	16gg\LL	.
.	.	.	.	.	.	.	.	.	.	.	.	.	.	.	.	.	.	.	.	.	.	.	.	.	.	.	.	.	.	.	.	16ee\	.
.	8A\J	.	.	.	.	.	.	.	.	.	.	.	8A/J	.	8c#X/J	.	8e/J	.	.	.	8A/J)	8A\J	.	.	.	.	8a/J)	.	.	8cc#X/J)	.	16cc#X\	.
.	.	.	.	.	.	.	.	.	.	.	.	.	.	.	.	.	.	.	.	.	.	.	.	.	.	.	.	.	.	.	.	16aa\JJ	.
*	*	*	*	*	*	*	*	*	*	*	*	*	*	*	*	*	*	*	*	*	*v	*v	*	*	*	*	*v	*v	*	*	*	*	*
!!LO:PB:g=original
=29	=29	=29	=29	=29	=29	=29	=29	=29	=29	=29	=29	=29	=29	=29	=29	=29	=29	=29	=29	=29	=29	=29	=29	=29	=29	=29	=29	=29	=29	=29	=29
*	*^	*	*	*	*	*	*	*	*	*	*	*	*	*	*	*	*	*	*	*	*	*	*	*	*	*	*	*	*	*	*
2.ryy	8D\	4ryy	.	4r	.	.	4r	.	.	4r	4r	.	.	8A/	.	8d/	.	8f#/	.	4r	.	8D\ 8A	.	8dd/	8dd\	.	8f#/ 8a	.	8dd\	.	16ff#\LL	.
.	.	.	.	.	.	.	.	.	.	.	.	.	.	.	.	.	.	.	.	.	.	.	.	.	.	.	.	.	.	.	16aa\	.
!	!LO:TX:a:t=l'arco	!	!	!	!	!	!	!	!	!	!	!	!	!	!	!	!	!LO:TX:a:t=l'arco	!	!	!	!	!	!	!	!	!	!	!	!	!	!
.	8r	.	sf	.	.	.	.	.	.	.	.	.	.	8r	.	8r	.	8r	.	.	.	8r	.	8r	8rAyy	.	8r	.	8r	.	16ddd\	.
.	.	.	.	.	.	.	.	.	.	.	.	.	.	.	.	.	.	.	.	.	.	.	.	.	.	.	.	.	.	.	16fff#\JJ	.
!	!	!	!	!	!	!	!	!	!	!	!	!	!LO:DY:a	!	!	!	!	!	!	!	!	!	!	!	!	!	!	!	!	!	!	!
.	8D\ 8d	8ryy	.	8r	.	.	8r	.	.	4ryy	8r	.	p	8A^/ 8f#	.	8d/ 8a	sf	8f#^</ 8dd	sf	8f#X/ 8a	.	8D\ 8A	f	8dd/	8dd\	f	8f#/ 8a	.	8dd\	f	8ddd\	f
!	!	!	!LO:DY:a	!	!	!LO:DY:a	!	!	!	!	!	!	!	!	!	!	!	!LO:TX:a:t=dolce	!	!	!	!	!	!	!	!	!	!	!	!	!	!
.	(<8d'</L	8rGG	p	8d\	.	p	8d\	.	p	.	8d/	gdzie-	.	(8d'/L	.	(8d'/L	p	(8d'/L	p	8r	.	8r	.	(8dd'/L	8dd\L	p	8r	.	8r	.	8r	.
.	8cn'</	4rDD	.	8cn\	.	.	8d\	.	.	4ryy	8f#/	-kol-	.	8cn'/	.	8d'/	.	8f#'/	.	4r	.	4r	.	8dd'/	8dd\	.	4r	.	4r	.	4r	.
.	8B'</J)	.	.	8B\	.	.	8d\	.	.	.	8g/	-wiek	.	8B'/J)	.	8d'/J)	.	8g'/J)	.	.	.	.	.	8dd'/J)	8dd\J	.	.	.	.	.	.	.
=30	=30	=30	=30	=30	=30	=30	=30	=30	=30	=30	=30	=30	=30	=30	=30	=30	=30	=30	=30	=30	=30	=30	=30	=30	=30	=30	=30	=30	=30	=30	=30	=30
*	*	*	*	*	*	*	*	*	*	*	*	*	*	*	*	*	*	*	*	*	*	*	*	*	*2\right	*	*	*	*	*	*	*
2.ryy	(<8E#X^/L	2.r	.	8E#X\	.	.	8d\	.	.	2.ryy	8g#X/	słoń-	.	(8E#X^>/L	.	4d^>/	.	(8g#X^/L	.	2.r	.	2.r	.	2.dd/	2.dd\	.	2.r	.	2.r	.	2.r	.
.	8F#/J)	.	.	8F#\	.	.	8d\	.	.	.	8a/	-ce	.	8F#/J)	.	.	.	8a/J)	.	.	.	.	.	.	.	.	.	.	.	.	.	.
.	16G/	.	.	8G\	.	.	8d\	.	.	.	8b/	rzu-	.	16G/	.	16r	.	16r	.	.	.	.	.	.	.	.	.	.	.	.	.	.
.	16r	.	.	.	.	.	.	.	.	.	.	.	.	16r	.	16d/	.	16b/	.	.	.	.	.	.	.	.	.	.	.	.	.	.
.	16D/	.	.	8D\	.	.	8B\	.	.	.	8g#/	-ca	.	16d\	.	16r	.	16r	.	.	.	.	.	.	.	.	.	.	.	.	.	.
.	16r	.	.	.	.	.	.	.	.	.	.	.	.	16r	.	16B/	.	16g#/	.	.	.	.	.	.	.	.	.	.	.	.	.	.
.	16BB/	.	.	8BB/	.	.	8G\	.	.	.	8dd\	o-	.	16B/	.	16r	.	16r	.	.	.	.	.	.	.	.	.	.	.	.	.	.
.	16r	.	.	.	.	.	.	.	.	.	.	.	.	16r	.	16g/	.	16dd\	.	.	.	.	.	.	.	.	.	.	.	.	.	.
.	16GG/	.	.	8GG/	.	.	8d\	.	.	.	8b\	-gnie	.	16G/	.	16r	.	16r	.	.	.	.	.	.	.	.	.	.	.	.	.	.
.	16r	.	.	.	.	.	.	.	.	.	.	.	.	16r	.	16d/	.	16b\	.	.	.	.	.	.	.	.	.	.	.	.	.	.
=31	=31	=31	=31	=31	=31	=31	=31	=31	=31	=31	=31	=31	=31	=31	=31	=31	=31	=31	=31	=31	=31	=31	=31	=31	=31	=31	=31	=31	=31	=31	=31	=31
!	!	!	!	!	!	!	!	!	!	!	!	!	!	!	!	!	!	!	!	!	!	!	!	!	!	!	!	!LO:HP:a	!	!	!	!
2.ryy	4.D/	4r	.	4D\	.	.	(8.e#X^\L	.	.	2.ryy	(8.g#X^>/L	swo-	.	[4d\	.	(4e#X/	.	(4g#X^/	.	2.r	.	4r	.	4.dd/	4.dd^\	.	((4e#X/ 4g#X	>	2.r	.	2.r	.
.	.	.	.	.	.	.	16f#\Jk)	.	.	.	16a/Jk)	.	.	.	.	.	.	.	.	.	.	.	.	.	.	.	.	.	.	.	.	.
.	.	8r	.	8D\	.	.	8f#\	.	.	.	8a/	-je	.	8d\]	.	8f#/)	.	8a/)	.	.	.	4r	.	.	.	.	8f#/)) 8a	]	.	.	.	.
.	16D\	8rCCyy	.	8D\	.	.	8f#\	.	.	.	8a/	Po-	.	16r	.	16r	.	16r	.	.	.	.	.	8r	8rAyy	.	8r	.	.	.	.	.
.	16r	.	.	.	.	.	.	.	.	.	.	.	.	16d\	.	16f#/	.	16a/	.	.	.	.	.	.	.	.	.	.	.	.	.	.
!	!	!	!	!	!	!	!	!	!	!	!	!	!	!	!	!	!	!	!	!	!	!	!	!	!	!	!	!LO:DY:a	!	!	!	!
.	16D#X^<\	4rCCyy	.	8D#X\	.	.	8f#\	.	.	.	8b^>/	-ca-	.	16r	.	16r	.	16r	.	.	.	8D#X^<\ 8B	.	4r	4rAyy	.	8f#^/ 8b	sf	.	.	.	.
.	16r	.	.	.	.	.	.	.	.	.	.	.	.	16B\	.	16f#/	.	16b^>/	.	.	.	.	.	.	.	.	.	.	.	.	.	.
.	16D#\	.	.	8D#\	.	.	8f#\	.	.	.	8a/	-łym	.	16r	.	16r	.	16r	.	.	.	8r	.	.	.	.	8r	.	.	.	.	.
.	16r	.	.	.	.	.	.	.	.	.	.	.	.	16B\	.	16f#/	.	16a/	.	.	.	.	.	.	.	.	.	.	.	.	.	.
*	*v	*v	*	*	*	*	*	*	*	*	*	*	*	*	*	*	*	*	*	*	*	*	*	*v	*v	*	*	*	*	*	*	*
=32	=32	=32	=32	=32	=32	=32	=32	=32	=32	=32	=32	=32	=32	=32	=32	=32	=32	=32	=32	=32	=32	=32	=32	=32	=32	=32	=32	=32	=32	=32
2.ryy	16E\	.	4.E\	.	.	4.e\	.	.	2.ryy	4.g/	świe-	.	16r	.	16r	.	16r	.	2.r	.	4r	.	2.r	.	4r	.	2.r	.	2.r	.
.	16r	.	.	.	.	.	.	.	.	.	.	.	16B/	.	16e/	.	16g/	.	.	.	.	.	.	.	.	.	.	.	.	.
*	*rep	*	*	*	*	*	*	*	*	*	*	*	*rep	*	*rep	*	*rep	*	*	*	*	*	*	*	*	*	*	*	*	*
.	16E\	.	.	.	.	.	.	.	.	.	.	.	16r	.	16r	.	16r	.	.	.	.	.	.	.	.	.	.	.	.	.
.	16r	.	.	.	.	.	.	.	.	.	.	.	16B/	.	16e/	.	16g/	.	.	.	.	.	.	.	.	.	.	.	.	.
.	16E\	.	.	.	.	.	.	.	.	.	.	.	16r	.	16r	.	16r	.	.	.	4r	.	.	.	4r	.	.	.	.	.
.	16r	.	.	.	.	.	.	.	.	.	.	.	16B/	.	16e/	.	16g/	.	.	.	.	.	.	.	.	.	.	.	.	.
*	*Xrep	*	*	*	*	*	*	*	*	*	*	*	*	*	*	*	*	*	*	*	*	*	*	*	*	*	*	*	*	*
.	16D\	.	8D\	.	.	8e\	.	.	.	8g/	-cie	.	16r	.	16r	.	16r	.	.	.	.	.	.	.	.	.	.	.	.	.
*	*	*	*	*	*	*	*	*	*	*	*	*	*	*	*	*	*	*	*	*	*	*	*	*	*	*	*	*	*	*
.	16r	.	.	.	.	.	.	.	.	.	.	.	16B/	.	16e/	.	16g/	.	.	.	.	.	.	.	.	.	.	.	.	.
*	*	*	*	*	*	*	*	*	*	*	*	*	*Xrep	*	*	*	*Xrep	*	*	*	*	*	*	*	*	*	*	*	*	*
!	!	!	!	!	!	!	!	!	!	!	!	!	!	!	!	!	!	!	!	!	!	!	!	!	!	!LO:DY:a	!	!	!	!
.	16C#X^/	.	8C#X/	.	.	8e\	.	.	.	8a^>/	sły-	.	16r	.	16r	.	16r	.	.	.	8C#X^<\ 8A	.	.	.	8e^/ 8a	sf	.	.	.	.
.	16r	.	.	.	.	.	.	.	.	.	.	.	16A/	.	16e/	.	16a^>/	.	.	.	.	.	.	.	.	.	.	.	.	.
*	*rep	*	*	*	*	*	*	*	*	*	*	*	*rep	*	*	*	*	*	*	*	*	*	*	*	*	*	*	*	*	*
.	16C#/	.	8C#/	.	.	8e\	.	.	.	8g/	-nie	.	16r	.	16r	.	16r	.	.	.	8r	.	.	.	8r	.	.	.	.	.
.	16r	.	.	.	.	.	.	.	.	.	.	.	16A/	.	16e/	.	16g/	.	.	.	.	.	.	.	.	.	.	.	.	.
*	*Xrep	*	*	*	*	*	*	*	*	*	*	*	*Xrep	*	*Xrep	*	*	*	*	*	*	*	*	*	*	*	*	*	*	*
!!LO:PB:g=original
=33	=33	=33	=33	=33	=33	=33	=33	=33	=33	=33	=33	=33	=33	=33	=33	=33	=33	=33	=33	=33	=33	=33	=33	=33	=33	=33	=33	=33	=33	=33
*	*	*	*	*	*	*	*	*	*	*	*	*	*	*	*	*	*	*	*	*	*	*	*^	*	*^	*	*	*	*	*
!	!	!	!	!	!	!	!	!	!	!	!	!	!	!	!	!	!	!	!LO:N:vis=1r	!	!	!	!	!	!	!	!	!	!LO:N:vis=1r	!	!	!
2.ryy	8D\	.	8D\	.	.	8d\	.	.	2.ryy	8f#/	I-	.	8d\	.	8d/	.	8f#/	.	2.r	.	8r	.	8r	8rAyy	.	8r	8rAyy	.	2.r	.	16ff#\LL	.
.	.	.	.	.	.	.	.	.	.	.	.	.	.	.	.	.	.	.	.	.	.	.	.	.	.	.	.	.	.	.	16aa\	.
.	8r	.	8F#\	.	.	8d\	.	.	.	8a/	-mie	.	8r	.	8r	.	8r	.	.	.	8F#'\L 8A	p	8dd/L	8dd\L	p	8a'/L	8d\L	p	.	.	16ddd\	.
.	.	.	.	.	.	.	.	.	.	.	.	.	.	.	.	.	.	.	.	.	.	.	.	.	.	.	.	.	.	.	16aa\JJ	.
!	!LO:TX:b:t=pizz&colon;	!	!	!	!	!	!	!	!	!	!	!	!	!	!	!	!	!	!	!	!	!	!	!	!	!	!	!	!	!	!	!
.	8r	.	8F#\	.	.	8d\	.	.	.	8dd\	sły-	.	8r	.	8r	.	8r	.	.	.	8F#'\J 8A	.	8dd/J	8dd\J	.	8dd'/J	8d\J	.	.	.	16dd\LL	.
.	.	.	.	.	.	.	.	.	.	.	.	.	.	.	.	.	.	.	.	.	.	.	.	.	.	.	.	.	.	.	16aa\	.
.	8F#\L	.	8F#\	.	.	8d\	.	.	.	8a/	-nie	.	8d/L	.	8d/L	.	8a/L	.	.	.	8r	.	8r	8rFyy	.	8r	8rFyy	.	.	.	16ddd\	.
.	.	.	.	.	.	.	.	.	.	.	.	.	.	.	.	.	.	.	.	.	.	.	.	.	.	.	.	.	.	.	16aa\JJ	.
.	8G\	.	8G\	.	.	8e\	.	.	.	8g/	Two-	.	8B/	.	8e/	.	8g/	.	.	.	4r	.	4r	4rFyy	.	4r	4rFyy	.	.	.	16gg\LL	.
.	.	.	.	.	.	.	.	.	.	.	.	.	.	.	.	.	.	.	.	.	.	.	.	.	.	.	.	.	.	.	16ee\	.
.	8A\J	.	8A\	.	.	8c#X\	.	.	.	8e/	-je	.	8A/J	.	8c#X/J	.	8e/J	.	.	.	.	.	.	.	.	.	.	.	.	.	16aa\	.
.	.	.	.	.	.	.	.	.	.	.	.	.	.	.	.	.	.	.	.	.	.	.	.	.	.	.	.	.	.	.	16gg\JJ	.
*	*	*	*	*	*	*	*	*	*	*	*	*	*	*	*	*	*	*	*	*	*	*	*	*	*	*v	*v	*	*	*	*	*
=34	=34	=34	=34	=34	=34	=34	=34	=34	=34-	=34	=34	=34	=34	=34	=34	=34	=34	=34	=34	=34	=34	=34	=34	=34	=34	=34	=34	=34	=34	=34	=34
*	*	*	*	*	*	*	*	*	*	*	*	*	*	*	*	*	*	*	*	*	*	*	*	*	*	*	*	*	*	*rep	*
!	!	!	!	!	!	!	!	!	!	!	!	!	!	!	!	!	!	!	!LO:N:vis=1r	!	!	!	!	!	!	!	!	!LO:N:vis=1r	!	!	!
2.ryy	8D\	.	8D\	.	.	8d\	.	.	2.ryy	8f#/	i-	.	8A/	.	8d/	.	8f#/	.	2.r	.	8r	.	8r	8rAyy	.	8r	.	2.r	.	16ff#\LL	.
.	.	.	.	.	.	.	.	.	.	.	.	.	.	.	.	.	.	.	.	.	.	.	.	.	.	.	.	.	.	16aa\	.
.	8r	.	8F#\	.	.	8d\	.	.	.	8a/	-mie	.	8r	.	8r	.	8r	.	.	.	8F#\L 8A	.	8dd/L	8dd\L	.	8d'/L 8a	.	.	.	16ddd\	.
.	.	.	.	.	.	.	.	.	.	.	.	.	.	.	.	.	.	.	.	.	.	.	.	.	.	.	.	.	.	16aa\JJ	.
!	!LO:TX:b:t=l'arco	!	!	!	!	!	!	!	!	!	!	!	!	!	!	!	!	!	!	!	!	!	!	!	!	!	!	!	!	!	!
.	8r	.	8F#\	.	.	8d\	.	.	.	8dd\	sły-	.	8r	.	8r	.	8r	.	.	.	8F#\J 8A	.	8dd/J	8dd\J	.	8d'/J 8dd	.	.	.	16dd\LL	.
.	.	.	.	.	.	.	.	.	.	.	.	.	.	.	.	.	.	.	.	.	.	.	.	.	.	.	.	.	.	16aa\	.
.	8F#\L	.	8F#\	.	.	8d\	.	.	.	8a/	-nie	.	8d/L	.	8d/L	.	8a/L	.	.	.	8r	.	8r	8rFyy	.	8r	.	.	.	16ddd\	.
.	.	.	.	.	.	.	.	.	.	.	.	.	.	.	.	.	.	.	.	.	.	.	.	.	.	.	.	.	.	16aa\JJ	.
.	8G\	.	8G\	.	.	8e\	.	.	.	8g/	Two-	.	8B/	.	8e/	.	8g/	.	.	.	4r	.	4r	4rFyy	.	4r	.	.	.	16gg\LL	.
.	.	.	.	.	.	.	.	.	.	.	.	.	.	.	.	.	.	.	.	.	.	.	.	.	.	.	.	.	.	16ee\	.
.	8A\J	.	8A\	.	.	8c#X\	.	.	.	8e/	-je	.	8A/J	.	8c#X/J	.	8e/J	.	.	.	.	.	.	.	.	.	.	.	.	16aa\	.
.	.	.	.	.	.	.	.	.	.	.	.	.	.	.	.	.	.	.	.	.	.	.	.	.	.	.	.	.	.	16gg\JJ	.
*	*	*	*	*	*	*	*	*	*	*	*	*	*	*	*	*	*	*	*	*	*	*	*	*	*	*	*	*	*	*Xrep	*
=35	=35	=35	=35	=35	=35	=35	=35	=35	=35-	=35	=35	=35	=35	=35	=35	=35	=35	=35	=35	=35	=35	=35	=35	=35	=35	=35	=35	=35	=35	=35	=35
*	*	*	*	*	*	*	*	*	*	*	*	*	*	*	*	*	*	*	*	*	*	*	*	*	*	*^	*	*	*	*	*
!	!	!	!	!	!	!	!	!	!	!	!	!	!	!	!	!	!	!	!LO:N:vis=1r	!	!	!	!	!	!	!	!	!	!	!	!	!
2.ryy	8D\L	<	8D\	.	.	8d\	.	.	2.ryy	8f#/	i-	.	8A/L	.	8d/L	.	8f#'/L	.	2.r	.	8r	.	8r	8rAyy	.	8r	4rAyy	.	8r	.	16ff#\LL	.
.	.	.	.	.	.	.	.	.	.	.	.	.	.	.	.	.	.	.	.	.	.	.	.	.	.	.	.	.	.	.	16aa\	.
.	8F#\	.	8F#\	.	.	8d\	.	.	.	8a/	-mie	.	8d/	.	8d/	<	8a'/J	<	.	.	8F#'\L 8A	<	8dd/L	8dd\L	.	8d/L 8a	.	<	8a'/L	<	16ddd\	.
.	.	.	.	.	.	.	.	.	.	.	.	.	.	.	.	.	.	.	.	.	.	.	.	.	.	.	.	.	.	.	16fff#\JJ	.
.	8F#\	.	8F#\	.	.	8A\	.	.	.	8dd\	sły-	.	8d/	.	8a/	.	8dd\L	.	.	.	8F#'\ 8A	.	8dd/J	8dd\J	.	8d'/ 8a	4rAyy	.	8dd'/	.	8ddd\	.
.	8G\	.	8G\	.	.	8B\	.	.	.	8ee\	-nie	.	8B/J	.	8b/J	.	8ee\	.	.	.	8G'\J 8B	.	8r	8rFyy	.	8g/J 8b	.	.	8ee'/	.	8r	.
.	8F#\	.	8F#\	.	.	8A#X\	.	.	.	8ff#\	Two-	.	4c#X/	.	4a#X/	[[	(8ff#\	.	.	.	4F#\ 4A#X	[[	4r	4rFyy	.	4cc#X/	4a#X\	.	(8ff#/	.	4r	.
!	!	!	!	!	!	!	!	!	!	!LO:SIC:s:v=cc#	!	!	!	!	!	!	!LO:SIC:s:v=cc#	!	!	!	!	!	!	!	!	!	!	!	!LO:SIC:s:v=cc#	!	!	!
.	8F#\J	[[	8F#\	.	.	8A#\	.	.	.	8cc\	-je	.	.	.	.	.	8cc\J)	[[	.	.	.	.	.	.	.	.	.	[[	8cc/J)	[[	.	.
=36	=36	=36	=36	=36	=36	=36	=36	=36	=36-	=36	=36	=36	=36	=36	=36	=36	=36	=36	=36	=36	=36	=36	=36	=36	=36	=36	=36	=36	=36	=36	=36	=36
*	*	*	*	*	*	*	*	*	*	*	*	*	*^	*	*	*	*	*	*^	*	*^	*	*	*	*	*	*	*	*	*	*	*
!	!LO:TX:t=P:problem=mixed beam	!	!	!	!	!	!	!	!	!	!	!	!	!	!	!	!	!	!	!	!	!	!	!	!	!	!	!	!	!	!	!	!	!	!
2.ryy	8BB/L	.	8B\	.	.	8B\	.	.	2.ryy	8ee\	i-	.	8.B/	4rBByy	.	8.b/	.	(8ee\L	.	4r	4rAyy	.	8.BB\ 8.B	4rFFFyy	.	4r	4rFyy	.	8.b/	8.b\	[	(8ee/L	.	4r	.
.	16B\Jk	.	16B\	.	.	16B\	.	.	.	16dd\	-mie	.	.	.	.	.	.	16dd\Jk)	.	.	.	.	.	.	.	.	.	.	.	.	.	16dd/Jk)	.	.	.
.	16r	.	16r	.	.	16r	.	.	.	16r	.	.	16r	.	.	16r	.	16r	.	.	.	.	16r	.	.	.	.	.	16r	16rAyy	.	16r	.	.	.
.	(4E\	sf >	(4E\	.	.	(4B\	.	.	.	(8.gg\L	sły-	.	(4e/	2B\	.	(4b/	sf >	(4e\ 4b 4gg	sf >	(4b/	4g\	sf	2B/	4E\	sf >	4gg/	4ee\	sf >	(4ee/	(4b\	sf >	(4gg\	sf >	(4ggg\	.
.	.	.	.	.	.	.	.	.	.	32aa\LL	.	.	.	.	.	.	.	.	.	.	.	.	.	.	.	.	.	.	.	.	.	.	.	.	.
.	.	.	.	.	.	.	.	.	.	32gg\JJJ	.	.	.	.	.	.	.	.	.	.	.	.	.	.	.	.	.	.	.	.	.	.	.	.	.
.	8.F#\L)	]	8.F#\)	.	.	8.A\)	.	.	.	8.ff#\)	.	.	8.d#X/L)	.	.	8.a/L)	]	8.ff#\L)	]	8.a/L)	8.f#X\L	.	.	8.F#\L	]	4r	4rFyy	]	8.dd#X/L)	8.a\L)	]	8.ff#\L)	]	8.fff#\L)	.
.	16G|>\Jk	.	16G|>\	.	.	16B|>\	.	.	.	16ee\	-nie	.	16e/Jk	.	.	16g|</Jk	.	16ee'\Jk	.	16g|>/Jk	16e\Jk	.	.	16G\Jk	.	.	.	.	16ee'/Jk	16g\Jk	.	16ee|>\Jk	.	16eee|>\Jk	.
*	*	*	*	*	*	*	*	*	*	*	*	*	*	*	*	*	*	*	*	*	*	*	*	*	*	*v	*v	*	*	*	*	*	*	*	*
*	*	*	*	*	*	*	*	*	*	*	*	*	*	*	*	*	*	*	*	*v	*v	*	*	*	*	*	*	*v	*v	*	*	*	*	*
!!LO:PB:g=original
=37	=37	=37	=37	=37	=37	=37	=37	=37	=37-	=37	=37	=37	=37	=37	=37	=37	=37	=37	=37	=37	=37	=37	=37	=37	=37	=37	=37	=37	=37	=37	=37	=37
!	!	!	!	!	!	!	!	!	!	!	!	!	!	!	!	!	!	!	!	!	!	!	!	!	!LO:N:vis=1r	!	!	!	!	!	!	!
2.ryy	8A\	.	(2A\	Two-	.	(4f#\	.	.	2.ryy	(8dd\L	Two-	.	8d/	8A\	.	8f#'/L	.	8dd'/L	p	8d/ 8f#X	.	8A/	8A\	.	2.r	.	8f#/ 8ddn	.	8dd\	.	8ddd\	.
.	8r	.	.	.	.	.	.	.	.	8a\	.	.	8r	8rDyy	.	(8f#/	.	(8a/	.	8r	.	8r	8rCCyy	.	.	.	8r	.	8r	.	8r	.
.	4r	p	.	.	.	8e#X\L	.	.	.	8g#X\	.	.	4r	4rDyy	p	8e#X/	.	8g#X/	.	4r	.	4r	4rCCyy	.	.	.	4r	.	4r	.	4r	.
.	.	.	.	.	.	8f#\J	.	.	.	8a\J	.	.	.	.	.	8f#/J)	.	8a/J)	.	.	.	.	.	.	.	.	.	.	.	.	.	.
.	4AA/	.	4AA/)	.	.	4g\)	.	.	.	8.ff#\L	.	.	4c#X\	4rDyy	.	4A/ 4g	.	(8.ff#\L	.	4r	.	4r	4rCCyy	.	.	.	4r	.	4r	.	4r	.
.	.	.	.	.	.	.	.	.	.	16ee\Jk)	.	.	.	.	.	.	.	16ee\Jk)	.	.	.	.	.	.	.	.	.	.	.	.	.	.
*	*	*	*	*	*	*	*	*	*	*	*	*	*v	*v	*	*	*	*	*	*	*	*v	*v	*	*	*	*	*	*	*	*	*
=38	=38	=38	=38	=38	=38	=38	=38	=38	=38-	=38	=38	=38	=38	=38	=38	=38	=38	=38	=38	=38	=38	=38	=38	=38	=38	=38	=38	=38	=38	=38
*	*	*	*	*	*	*	*	*	*	*	*	*	*	*	*	*	*	*	*	*	*	*	*^	*	*^	*	*	*	*	*
!	!	!	!	!	!	!	!	!	!	!	!	!	!	!	!	!	!	!	!LO:N:vis=1r	!	!	!	!	!	!	!	!	!	!	!	!	!
2.ryy	4D/	.	4D\	-je.	.	4f#\	.	.	2.ryy	4dd\	-je.	.	4d\	.	4A/ 4f#	.	4dd\	.	2.r	.	8r	.	8r	8rFyy	.	8r	4rAyy	.	8r	.	16ff#\LL	.
.	.	.	.	.	.	.	.	.	.	.	.	.	.	.	.	.	.	.	.	.	.	.	.	.	.	.	.	.	.	.	16aa\	.
.	.	.	.	.	.	.	.	.	.	.	.	.	.	.	.	.	.	.	.	.	8F#\ 8A	.	8dd/	8dd\	.	8d'>/ 8a	.	.	8a|>\	.	16ddd\	.
.	.	.	.	.	.	.	.	.	.	.	.	.	.	.	.	.	.	.	.	.	.	.	.	.	.	.	.	.	.	.	16fff#\JJ	.
!	!LO:TX:b:t=pizz&colon;	!	!	!	!	!	!	!	!	!	!	!	!	!	!	!	!LO:TX:b:t=pizz	!	!	!	!	!	!	!	!	!	!	!	!	!	!	!
.	8r	.	4r	.	.	4r	.	.	.	4r	.	.	8r	.	8r	.	8r	.	.	.	4F#\ 4A	.	4dd/	4dd\	.	4d'>/ 4a	4rDyy	.	4dd|>\	.	16aaa\LL	.
.	.	.	.	.	.	.	.	.	.	.	.	.	.	.	.	.	.	.	.	.	.	.	.	.	.	.	.	.	.	.	16fff#\	.
.	8F#\L	.	.	.	.	.	.	.	.	.	.	.	8d/L	.	8d/L	.	8a/L	.	.	.	.	.	.	.	.	.	.	.	.	.	16ddd\	.
.	.	.	.	.	.	.	.	.	.	.	.	.	.	.	.	.	.	.	.	.	.	.	.	.	.	.	.	.	.	.	16aa\JJ	.
.	8G\	.	4r	.	.	4r	.	.	.	4r	.	.	8B/	.	8e/	.	8g/	.	.	.	(8G\L 8B	.	4ee/	4ee\	.	(8b/L	4g\	.	(8ee\L	.	16gg\LL	.
.	.	.	.	.	.	.	.	.	.	.	.	.	.	.	.	.	.	.	.	.	.	.	.	.	.	.	.	.	.	.	16ee\	.
.	8A\J	.	.	.	.	.	.	.	.	.	.	.	8A/J	.	8c#X/J	.	8e/J	.	.	.	8A\J)	.	.	.	.	8a/J)	.	.	8cc#X\J	.	16cc#X\	.
.	.	.	.	.	.	.	.	.	.	.	.	.	.	.	.	.	.	.	.	.	.	.	.	.	.	.	.	.	.	.	16aa\JJ	.
=39	=39	=39	=39	=39	=39	=39	=39	=39	=39-	=39	=39	=39	=39	=39	=39	=39	=39	=39	=39	=39	=39	=39	=39	=39	=39	=39	=39	=39	=39	=39	=39	=39
*	*	*	*	*	*	*	*	*	*	*	*	*	*	*	*	*	*	*	*	*	*	*	*	*	*	*	*	*	*	*	*rep	*
!	!	!	!LO:N:vis=1r	!	!	!LO:N:vis=1r	!	!	!	!LO:N:vis=1r	!	!	!	!	!	!	!	!	!LO:N:vis=1r	!	!	!	!	!	!	!	!	!	!	!	!	!
2.ryy	8D\	.	2.r	.	.	2.r	.	.	2.ryy	2.r	.	.	8A/	.	8d/	.	8f#/	.	2.r	.	8D'\L 8A	.	8r	8ryy	.	8f#/L 8a	4ryy	.	8dd\L)	.	16ff#\LL	.
.	.	.	.	.	.	.	.	.	.	.	.	.	.	.	.	.	.	.	.	.	.	.	.	.	.	.	.	.	.	.	16aa\	.
.	8r	.	.	.	.	.	.	.	.	.	.	.	8r	.	8r	.	8r	.	.	.	8F#'\J 8A	.	8dd/	8dd\	.	8d/J 8a	.	.	8a'\J	.	16ddd\	.
.	.	.	.	.	.	.	.	.	.	.	.	.	.	.	.	.	.	.	.	.	.	.	.	.	.	.	.	.	.	.	16fff#\JJ	.
.	8r	.	.	.	.	.	.	.	.	.	.	.	8r	.	8r	.	8r	.	.	.	4F#\ 4A	.	4dd/	4dd\	.	4d/ 4a	4rFyy	.	4dd'\	.	16aaa\LL	.
.	.	.	.	.	.	.	.	.	.	.	.	.	.	.	.	.	.	.	.	.	.	.	.	.	.	.	.	.	.	.	16fff#\	.
.	8F#\L	.	.	.	.	.	.	.	.	.	.	.	8d/L	.	8d/L	.	8a/L	.	.	.	.	.	.	.	.	.	.	.	.	.	16ddd\	.
.	.	.	.	.	.	.	.	.	.	.	.	.	.	.	.	.	.	.	.	.	.	.	.	.	.	.	.	.	.	.	16aa\JJ	.
.	8G\	.	.	.	.	.	.	.	.	.	.	.	8B/	.	8e/	.	8g/	.	.	.	(8G\L 8B	.	4ee/	4ee\	.	(8b/L	4g\	.	(8ee\L	.	16gg\LL	.
.	.	.	.	.	.	.	.	.	.	.	.	.	.	.	.	.	.	.	.	.	.	.	.	.	.	.	.	.	.	.	16ee\	.
.	8A\J	.	.	.	.	.	.	.	.	.	.	.	8A/J	.	8c#X/J	.	8e/J	.	.	.	8A\J)	.	.	.	.	8a/J)	.	.	8cc#X\J)	.	16cc#X\	.
.	.	.	.	.	.	.	.	.	.	.	.	.	.	.	.	.	.	.	.	.	.	.	.	.	.	.	.	.	.	.	16aa\JJ	.
*	*	*	*	*	*	*	*	*	*	*	*	*	*	*	*	*	*	*	*	*	*	*	*	*	*	*	*	*	*	*	*Xrep	*
*	*	*	*	*	*	*	*	*	*	*	*	*	*	*	*	*	*	*	*	*	*	*	*	*	*	*v	*v	*	*	*	*	*
=40	=40	=40	=40	=40	=40	=40	=40	=40	=40-	=40	=40	=40	=40	=40	=40	=40	=40	=40	=40	=40	=40	=40	=40	=40	=40	=40	=40	=40	=40	=40	=40
!	!	!	!	!	!	!LO:N:vis=1r	!	!	!	!LO:N:vis=1r	!	!	!	!	!	!	!	!	!	!	!	!	!	!	!	!	!	!	!	!	!
2.ryy	8D\	.	4r	.	.	2.r	.	.	2.ryy	2.r	.	.	8A/	.	8d/	.	8f#/	.	4r	.	8D\ 8A	.	8dd/	8dd\	.	8f#/ 8a	.	8dd\	.	16ff#\LL	.
.	.	.	.	.	.	.	.	.	.	.	.	.	.	.	.	.	.	.	.	.	.	.	.	.	.	.	.	.	.	16aa\	.
!	!LO:TX:b:t=l'arco	!	!	!	!	!	!	!	!	!	!	!	!	!	!	!	!LO:TX:a:t=l'arco	!	!	!	!	!	!	!	!	!	!	!	!	!	!
.	8r	.	.	.	.	.	.	.	.	.	.	.	8r	.	8r	.	8r	.	.	.	8r	.	8r	8rAyy	.	8r	.	8r	.	16ddd\	.
.	.	.	.	.	.	.	.	.	.	.	.	.	.	.	.	.	.	.	.	.	.	.	.	.	.	.	.	.	.	16fff#\JJ	.
.	8D\ 8d	sf	8r	.	.	.	.	.	.	.	.	.	8A/ 8f#	.	8d/ 8a	sf	8f#/ 8dd	sf	8f#X/ 8a	.	8D^<\ 8A	sf	8dd/	8dd^<\	sf	8f#^</ 8a	sf	8dd^<\	sf	8ddd^<\	sf
.	8r	p	(16d\LL	Bo	.	.	.	.	.	.	.	.	8r	.	8r	.	8r	.	8r	.	8r	.	8r	8rAyy	.	8r	.	8r	.	8r	.
.	.	.	32e\L	.	.	.	.	.	.	.	.	.	.	.	.	.	.	.	.	.	.	.	.	.	.	.	.	.	.	.	.
.	.	.	32d\JJJ)	.	.	.	.	.	.	.	.	.	.	.	.	.	.	.	.	.	.	.	.	.	.	.	.	.	.	.	.
.	4D\	.	8c\	sła-	.	.	.	.	.	.	.	.	4A/	p	4c/ 4d	p	4f#/	p	4r	.	4r	.	4r	4rAyy	.	4r	.	4r	.	4r	.
.	.	.	8A\	-wy	.	.	.	.	.	.	.	.	.	.	.	.	.	.	.	.	.	.	.	.	.	.	.	.	.	.	.
*	*	*	*	*	*	*	*	*	*	*	*	*	*	*	*	*	*	*	*	*	*	*	*v	*v	*	*	*	*	*	*	*
!!LO:PB:g=original
=41	=41	=41	=41	=41	=41	=41	=41	=41	=41-	=41	=41	=41	=41	=41	=41	=41	=41	=41	=41	=41	=41	=41	=41	=41	=41	=41	=41	=41	=41	=41
!	!	!	!	!	!	!	!	!	!	!LO:N:vis=1r	!	!	!	!	!	!	!	!	!LO:N:vis=1r	!	!LO:N:vis=1r	!	!LO:N:vis=1r	!	!LO:N:vis=1r	!	!LO:N:vis=1r	!	!LO:N:vis=1r	!
2.ryy	8G\L	p	(16B\LL	Nie-	.	4r	.	.	2.ryy	2.r	.	.	(8G'/L	.	(8B'/L 8d	.	(>8g'>/L	p	2.r	.	2.r	.	2.r	.	2.r	.	2.r	.	2.r	.
.	.	.	16G\	.	.	.	.	.	.	.	.	.	.	.	.	.	.	.	.	.	.	.	.	.	.	.	.	.	.	.
.	8G\	.	16D\	.	.	.	.	.	.	.	.	.	8G'/	.	8B'/ 8d	.	8g'>/	.	.	.	.	.	.	.	.	.	.	.	.	.
.	.	.	16G\JJ)	.	.	.	.	.	.	.	.	.	.	.	.	.	.	.	.	.	.	.	.	.	.	.	.	.	.	.
.	8G\J	.	8B\	ba	.	8r	.	.	.	.	.	.	8G'/J)	.	8B'/J) 8d	.	8g'>/J)	.	.	.	.	.	.	.	.	.	.	.	.	.
.	8r	.	(16B\LL	Bo	.	(16d\LL	Bo	.	.	.	.	.	8r	.	8r	.	8r	.	.	.	.	.	.	.	.	.	.	.	.	.
.	.	.	32c\L	.	.	32e\L	.	.	.	.	.	.	.	.	.	.	.	.	.	.	.	.	.	.	.	.	.	.	.	.
.	.	.	32B\JJJ)	.	.	32d\JJJ)	.	.	.	.	.	.	.	.	.	.	.	.	.	.	.	.	.	.	.	.	.	.	.	.
.	4D\	.	8A\	sła-	.	8c\	sła-	.	.	.	.	.	4A/	.	4c/ 4d	.	4f#/	.	.	.	.	.	.	.	.	.	.	.	.	.
.	.	.	8F#\	-wy	.	8A\	-wy	.	.	.	.	.	.	.	.	.	.	.	.	.	.	.	.	.	.	.	.	.	.	.
=42	=42	=42	=42	=42	=42	=42	=42	=42	=42-	=42	=42	=42	=42	=42	=42	=42	=42	=42	=42	=42	=42	=42	=42	=42	=42	=42	=42	=42	=42	=42
!	!	!	!	!	!	!	!	!	!	!	!	!	!	!	!	!	!	!	!LO:N:vis=1r	!	!LO:N:vis=1r	!	!LO:N:vis=1r	!	!LO:N:vis=1r	!	!LO:N:vis=1r	!	!LO:N:vis=1r	!
2.ryy	8G\L	.	(16G\LL	nie-	.	(16B\LL	nie-	.	2.ryy	4r	.	.	(8G'/L	.	(8B'/L 8d	.	(>8g'>/L	.	2.r	.	2.r	.	2.r	.	2.r	.	2.r	.	2.r	.
.	.	.	16D\	.	.	16d\	.	.	.	.	.	.	.	.	.	.	.	.	.	.	.	.	.	.	.	.	.	.	.	.
.	8G\J	.	16BB\	.	.	16g\	.	.	.	.	.	.	8G'/	.	8B'/ 8d	.	8g'>/	.	.	.	.	.	.	.	.	.	.	.	.	.
.	.	.	16D\JJ)	.	.	16d\JJ)	.	.	.	.	.	.	.	.	.	.	.	.	.	.	.	.	.	.	.	.	.	.	.	.
.	8G\	.	8GG/	-ba	.	8B\	-ba	.	.	8r	.	.	8G'/J)	.	8B'/J) 8d	.	8g'>/J)	.	.	.	.	.	.	.	.	.	.	.	.	.
.	8r	.	8r	.	.	8r	.	.	.	8g/	Bo	.	8r	.	8r	.	8g'\L	.	.	.	.	.	.	.	.	.	.	.	.	.
.	4r	.	4r	.	.	4r	.	.	.	8ee\	sła-	.	4r	.	4r	.	(8ee\	.	.	.	.	.	.	.	.	.	.	.	.	.
.	.	.	.	.	.	.	.	.	.	8dd\	-wy	.	.	.	.	.	8dd\J)	.	.	.	.	.	.	.	.	.	.	.	.	.
=43	=43	=43	=43	=43	=43	=43	=43	=43	=43-	=43	=43	=43	=43	=43	=43	=43	=43	=43	=43	=43	=43	=43	=43	=43	=43	=43	=43	=43	=43	=43
*	*	*	*	*	*	*2\right	*	*	*	*	*	*	*	*	*	*	*	*	*	*	*	*	*	*	*	*2\right	*	*	*	*
*	*	*	*	*	*	*	*	*	*	*	*	*	*	*	*	*	*	*	*	*	*	*	*	*	*^	*	*	*	*	*
!	!	!	!	!	!	!	!	!	!	!	!	!	!	!	!	!	!	!	!LO:N:vis=1r	!	!	!	!LO:N:vis=1r	!	!	!	!	!	!	!LO:N:vis=1r	!
2.ryy	(4.A^\	.	(4.A^\	Bo-	.	2e^\	Bo	.	2.ryy	4cc#X^\	Nie-	.	[4e^<\	.	[4a^/	.	[4cc#X^\	.	2.r	.	(4.A^<\	.	2.r	.	2a/	2e^\	.	2cc#X^<\	.	2.r	.
.	.	.	.	.	.	.	.	.	.	8cc#\	-ba	.	8e\L]	.	(8a'/L]	.	(8cc#|>\L]	.	.	.	.	.	.	.	.	.	.	.	.	.	.
.	8G\)	.	8G\)	.	.	.	.	.	.	8cc#\	Bo	.	(8e'\J	.	8a'/J	.	8cc#|>\J)	.	.	.	8G\)	.	.	.	.	.	.	.	.	.	.
.	.	.	.	.	.	.	.	.	.	(8qcc#/	.	.	.	.	.	.	(8qee/	.	.	.	.	.	.	.	.	.	.	.	.	.	.
.	8F#\L	.	8F#\	-sła-	.	8d\	sła-	.	.	8dd\)	sła-	.	8d'\L	.	8a'/L	.	8dd\L)	.	.	.	4F#\	.	.	.	4a/	4d\	.	(8dd\L	.	.	.
.	8F#\J	.	8F#\	-wy	.	8d\	-wy	.	.	8ccn\	-wy	.	8d'\J)	.	8a'/J)	.	8ccn|>\J	.	.	.	.	.	.	.	.	.	.	8ccn\J)	.	.	.
=44	=44	=44	=44	=44	=44	=44	=44	=44	=44-	=44	=44	=44	=44	=44	=44	=44	=44	=44	=44	=44	=44	=44	=44	=44	=44	=44	=44	=44	=44	=44	=44
*	*	*	*	*	*	*	*	*	*	*	*	*	*	*	*	*	*	*	*	*	*	*	*^	*	*	*	*	*	*	*	*
!	!	!	!	!	!	!	!	!	!	!	!	!	!	!	!	!	!	!	!LO:N:vis=1r	!	!	!	!	!	!	!	!	!	!	!	!LO:N:vis=1r	!
2.ryy	8G\L	.	8G\L	Nie-	.	(8d\L	Nie-	.	2.ryy	4b\	nie-	.	(8d\L	.	(8g/L	.	4b\	.	2.r	.	8G\L	.	4r	4rAyy	.	8g/L	8e\L	.	4.b/	.	2.r	.
.	8D#X\J	.	8D#X\J	.	.	8f#\J)	.	.	.	.	.	.	8d#X\J)	.	8f#/J)	.	.	.	.	.	8D#X\J	.	.	.	.	8f#/J	8f#\J	.	.	.	.	.
.	8E\	.	8E\	-ba	.	8e\	-ba	.	.	8b\	-ba	.	8e\	.	8g/	.	8b\	.	.	.	8E\	.	4r	4rAyy	.	8g/	8e\	.	.	.	.	.
.	8r	.	8r	.	.	8r	.	.	.	8r	.	.	8r	.	8r	.	8r	.	.	.	8r	.	.	.	.	8r	8rFyy	.	8r	.	.	.
.	4C\	.	4Cn/	O	.	4e\	o	.	.	8.dd\L	o-	.	4e\	.	4a/	.	(8.dd\L	.	.	.	4r	.	4ee/	4cc\	.	4r	4rAyy	.	4r	.	.	.
.	.	.	.	.	.	.	.	.	.	16cc\Jk	.	.	.	.	.	.	16cc\Jk)	.	.	.	.	.	.	.	.	.	.	.	.	.	.	.
*	*	*	*	*	*	*	*	*	*	*	*	*	*	*	*	*	*	*	*	*	*	*	*	*	*	*v	*v	*	*	*	*	*
!!LO:PB:g=original
=45	=45	=45	=45	=45	=45	=45	=45	=45	=45-	=45	=45	=45	=45	=45	=45	=45	=45	=45	=45	=45	=45	=45	=45	=45	=45	=45	=45	=45	=45	=45	=45
!	!	!	!	!	!	!	!	!	!	!	!	!	!	!	!	!	!	!	!LO:N:vis=1r	!	!LO:N:vis=1r	!	!	!	!	!LO:N:vis=1r	!	!LO:N:vis=1r	!	!LO:N:vis=1r	!
2.ryy	8D\	.	4D\	.	.	(4d\	.	.	2.ryy	(4b/	-gar-	.	8d\L	.	8g/L	.	8b/L	.	2.r	.	2.r	.	2.dd/	2.dd\	.	2.r	.	2.r	.	2.r	.
.	8r	.	.	.	.	.	.	.	.	.	.	.	8d\J	.	8g/J	.	8b/J	.	.	.	.	.	.	.	.	.	.	.	.	.	.
.	8D\	.	4D\	.	.	8B\L	.	.	.	8g/L	.	.	8r	.	8r	.	8r	.	.	.	.	.	.	.	.	.	.	.	.	.	.
.	8r	.	.	.	.	32c\LL	.	.	.	32a/LL	.	.	8G/	.	8B/ 8d	.	8g/	.	.	.	.	.	.	.	.	.	.	.	.	.	.
.	.	.	.	.	.	32B\	.	.	.	32g/	.	.	.	.	.	.	.	.	.	.	.	.	.	.	.	.	.	.	.	.	.
.	.	.	.	.	.	32A\	.	.	.	32f#/	.	.	.	.	.	.	.	.	.	.	.	.	.	.	.	.	.	.	.	.	.
.	.	.	.	.	.	32B\JJJ)	.	.	.	32g/JJJ)	.	.	.	.	.	.	.	.	.	.	.	.	.	.	.	.	.	.	.	.	.
.	8D\	.	4D\	.	.	8.c\	.	.	.	8.a/	-nąć	.	8r	.	8r	.	8r	.	.	.	.	.	.	.	.	.	.	.	.	.	.
.	8r	.	.	.	.	.	.	.	.	.	.	.	8A/	.	8c/ 8d	.	8f#/	.	.	.	.	.	.	.	.	.	.	.	.	.	.
.	.	.	.	.	.	16A\	.	.	.	16f#/	nie	.	.	.	.	.	.	.	.	.	.	.	.	.	.	.	.	.	.	.	.
*	*	*	*	*	*	*	*	*	*	*	*	*	*	*	*	*	*	*	*	*	*	*	*v	*v	*	*	*	*	*	*	*
=46	=46	=46	=46	=46	=46	=46	=46	=46	=46-	=46	=46	=46	=46	=46	=46	=46	=46	=46	=46	=46	=46	=46	=46	=46	=46	=46	=46	=46	=46	=46
*	*	*	*	*	*	*	*	*	*	*	*	*	*	*	*	*	*	*	*	*	*	*	*	*	*^	*	*	*	*	*
*	*	*	*	*	*	*	*	*^	*	*	*	*	*	*	*	*	*	*	*	*	*	*	*	*	*	*	*	*	*	*	*
!	!	!	!	!	!LO:DY:a	!	!	!LO:DY:a	!	!	!	!	!LO:DY:a	!	!	!	!	!	!	!LO:N:vis=1r	!	!	!	!	!	!	!	!	!LO:N:vis=1r	!	!	!
2.ryy	8BB/	<	4BB/	.	<	4G/	.	<	.	2.ryy	4dd\	mo-	<	8r	.	8r	.	8r	.	2.r	.	4r	.	4g/ 4dd	.	4r	4rAyy	.	2.r	.	4r	.
!	!	!	!	!	!	!	!	!	!	!	!	!	!	!	!LO:DY:a	!	!	!	!LO:HP:a	!	!	!	!	!	!	!	!	!	!	!	!	!
.	8r	.	.	.	.	.	.	.	.	.	.	.	.	8d\L	<	8g/L	<	8dd\L	<	.	.	.	.	.	.	.	.	.	.	.	.	.
*	*	*	*	*	*	*	*	*	*	*	*	*	*	*	*	*	*	*	*	*	*	*	*	*	*	*	*2\right	*	*	*	*	*
.	8B\	.	4BB/	.	.	4d\	.	.	<	.	4dd\	-że	.	8d\	.	8g/	.	8dd\	.	.	.	2BB\ 2B	<[	4r	.	(4dd/	2g\	<	.	.	(4ddd\	<
.	8r	.	.	.	.	.	.	.	.	.	.	.	.	8d\J	.	8g/J	.	8dd\J	.	.	.	.	.	.	.	.	.	.	.	.	.	.
.	4BB/	[[	4B\	.	[[	4d#X\	.	[[	.	.	4dd#X\	Po-	[[	8d#X\L	.	8g/L	.	8dd#X\L	.	.	.	.	.	4r	.	4dd#X/)	.	.	.	.	4ddd#X\	[[
.	.	.	.	.	.	.	.	.	.	.	.	.	.	8d#\J	[[	8g/J	[[	8dd#\J	[[	.	.	.	.	.	.	.	.	[	.	.	.	.
*	*	*	*	*	*	*	*	*v	*v	*	*	*	*	*	*	*	*	*	*	*	*	*	*	*	*	*	*	*	*	*	*	*
=47	=47	=47	=47	=47	=47	=47	=47	=47	=47-	=47	=47	=47	=47	=47	=47	=47	=47	=47	=47	=47	=47	=47	=47	=47	=47	=47	=47	=47	=47	=47	=47
*	*	*	*	*	*	*	*	*	*	*	*	*	*	*	*	*	*	*	*	*	*	*	*^	*	*	*	*	*	*	*	*
*	*	*	*	*	*	*	*	*	*	*2\right	*	*	*	*	*	*	*2\right	*	*	*	*	*	*	*	*	*	*	*	*	*	*	*
*	*	*	*	*	*	*	*	*	*	*	*	*	*tremolo	*	*tremolo	*	*tremolo	*	*	*	*	*	*	*	*	*	*	*	*	*	*2\right	*
!	!	!	!	!	!LO:DY:a	!	!	!LO:DY:a	!	!	!	!LO:DY:a	!	!LO:DY:a	!	!LO:DY:a	!	!LO:DY:a	!	!	!	!	!	!	!	!	!	!LO:DY:a	!	!	!	!
2.ryy	8C/	f	2c\	.	f	2e\	.	f	2.ryy	2ee\	-tę-	f	8c\L 8e	f	8g/L	f	8cc\L 8ee	f	4r	.	2C\ 2c	f	2ee/	2cc\	f	2ee/	2g\	f	2gg\	.	2eee\)	f
.	8r	.	.	.	.	.	.	.	.	.	.	.	8c\ 8e	.	8g/	.	8cc\ 8ee	.	.	.	.	.	.	.	.	.	.	.	.	.	.	.
.	4C/	.	.	.	.	.	.	.	.	.	.	.	8c\ 8e	.	8g/	.	8cc\ 8ee	.	4r	.	.	.	.	.	.	.	.	.	.	.	.	.
.	.	.	.	.	.	.	.	.	.	.	.	.	8c\J 8e	.	8g/	.	8cc\J 8ee	.	.	.	.	.	.	.	.	.	.	.	.	.	.	.
*	*	*	*	*	*	*	*	*	*	*	*	*	*Xtremolo	*	*	*	*Xtremolo	*	*	*	*	*	*	*	*	*	*	*	*	*	*	*
.	4C#X/	.	4c#X\	.	.	4e\	.	.	.	4gg\	-żny	.	8c#X\L 8e	.	8g/	.	8b-X\L 8gg	.	4g^</ 4b-X	.	4C#X^\ 4c#X	.	4ee^/	4cc#X\	.	4ee^/	4g\	.	4bb-X^\	.	4ggg\	.
.	.	.	.	.	.	.	.	.	.	.	.	.	8c#\J 8e	.	8g/J	.	8b-\J 8gg	.	.	.	.	.	.	.	.	.	.	.	.	.	.	.
*	*	*	*	*	*	*	*	*	*	*	*	*	*	*	*Xtremolo	*	*	*	*	*	*	*	*	*	*	*	*	*	*	*	*	*
*	*	*	*	*	*	*	*	*	*	*	*	*	*	*	*	*	*	*	*	*	*	*	*	*	*	*v	*v	*	*	*	*	*
=48	=48	=48	=48	=48	=48	=48	=48	=48	=48-	=48	=48	=48	=48	=48	=48	=48	=48	=48	=48	=48	=48	=48	=48	=48	=48	=48	=48	=48	=48	=48	=48
!	!	!	!	!	!LO:DY:a	!	!	!LO:DY:a	!	!	!	!LO:DY:a	!	!	!	!	!	!	!LO:N:vis=1r	!	!LO:N:vis=1r	!	!	!	!	!LO:N:vis=1r	!	!LO:N:vis=1r	!	!LO:N:vis=1r	!
2.ryy	8D\	p	(2d\	.	p	(2g\	.	p	2.ryy	(4b\	Bo-	p	8d\L	.	8g/L	p	8bn/L	p	2.r	.	2.r	.	2.dd/	2.dd\	p	2.r	.	2.r	.	2.r	.
.	8r	.	.	.	.	.	.	.	.	.	.	.	8d\J	.	8g/J	.	8b/J	.	.	.	.	.	.	.	.	.	.	.	.	.	.
.	8D\	.	.	.	.	.	.	.	.	4a\	.	.	8r	.	8r	.	8r	.	.	.	.	.	.	.	.	.	.	.	.	.	.
.	8r	.	.	.	.	.	.	.	.	.	.	.	8d\	.	8g/	.	8a/	.	.	.	.	.	.	.	.	.	.	.	.	.	.
.	8D\	.	4D\)	.	.	4f#\)	.	.	.	4dd\)	.	.	8r	.	8r	.	8r	.	.	.	.	.	.	.	.	.	.	.	.	.	.
.	8r	.	.	.	.	.	.	.	.	.	.	.	8d\	.	8f#/	.	8dd\	.	.	.	.	.	.	.	.	.	.	.	.	.	.
=49	=49	=49	=49	=49	=49	=49	=49	=49	=49	=49	=49	=49	=49	=49	=49	=49	=49	=49	=49	=49	=49	=49	=49	=49	=49	=49	=49	=49	=49	=49	=49
*	*	*	*	*	*	*	*	*	*	*	*	*	*	*	*	*	*	*	*^	*	*	*	*	*	*	*	*	*	*	*	*
!	!	!	!	!	!LO:DY:a	!	!	!LO:DY:a	!	!	!	!LO:DY:a	!	!	!	!	!	!	!	!	!	!	!	!	!	!	!	!	!	!	!	!
2.ryy	4E\	.	2E\	.	<	2g\	.	<	2.ryy	2b\	-że	<	8r	.	8r	.	8r	.	4r	4rAyy	.	4r	.	4ee/	4ee\	.	4r	.	4r	.	4r	.
!	!	!	!	!	!	!	!	!	!	!	!	!	!	!	!	!	!	!LO:HP:a	!	!	!	!	!	!	!	!	!	!	!	!	!	!
.	.	.	.	.	.	.	.	.	.	.	.	.	8e\L	.	8g/L	<	8b\L	<	.	.	.	.	.	.	.	.	.	.	.	.	.	.
.	4r	.	.	.	.	.	.	.	.	.	.	.	8e\	.	8g/	.	8b\	.	4r	4rAyy	.	4r	.	4r	4rAyy	.	4r	.	4r	.	4r	.
.	.	.	.	.	.	.	.	.	.	.	.	.	8e\J	.	8g/J	[	8b\J	.	.	.	.	.	.	.	.	.	.	.	.	.	.	.
!	!	!	!	!	!LO:DY:a	!	!	!LO:DY:a	!	!	!	!LO:DY:a	!	!	!	!	!	!	!	!	!	!	!	!	!	!	!	!	!	!	!	!
.	4C#X^</	sf	4C#X\ 4c#X	.	[ f	4e\	.	[ f	.	4ee\	Po-	[ f	8r	.	8r	.	8r	[	4g^/	4g\	.	4C#X^\ 4c#X	.	(4ee^/	(4cc#X\	.	(<4b-X^\ [4gg	.	(4bb-X^<\	.	(4eee^<\	sf
.	.	.	.	.	.	.	.	.	.	.	.	.	8c#X\ 8e	.	8g^/ 8b-X	.	8ee\	sf	.	.	.	.	.	.	.	.	.	.	.	.	.	.
=50	=50	=50	=50	=50	=50	=50	=50	=50	=50	=50	=50	=50	=50	=50	=50	=50	=50	=50	=50	=50	=50	=50	=50	=50	=50	=50	=50	=50	=50	=50	=50	=50
!	!	!	!	!	!	!	!	!	!	!	!	!	!	!	!	!	!	!LO:DY:a	!	!	!	!	!	!	!	!	!	!	!	!	!	!
2.ryy	(4.D\	f	(4.D\ 4.d	.	.	(4.d\	.	.	2.ryy	(4.dd\	-tę-	.	(4.d\	.	4g/ 4bn	f	((4.dd\	f	4g/	4g\	.	(4.D\ 4.d	.	4dd/)	4dd\)	.	4bn\) 4gg]	.	4bbn\)	.	4ddd\)	.
.	.	.	.	.	.	.	.	.	.	.	.	.	.	.	(8dd/L	.	.	.	4r	4rAyy	.	.	.	4r	4rcyy	.	4r	.	4r	.	4r	.
.	8B\	.	8B\)	.	.	8B\)	.	.	.	8b\)	.	.	8B/L	.	8b/	.	8b\L)	.	.	.	.	8B\	.	.	.	.	.	.	.	.	.	.
.	8G\L	.	(8G\L	.	.	(8G/L	.	.	.	(8g/L	-żny	.	8G/	.	8g/	.	8g\	.	4r	4rAyy	.	8G\L	.	4r	4rcyy	.	4r	.	4r	.	4r	.
.	8E\J)	.	8E\J)	.	.	8E/J)	.	.	.	8e/J)	.	.	8E/J)	.	8e/J)	.	8e\J)	.	.	.	.	8E\J)	.	.	.	.	.	.	.	.	.	.
*	*	*	*	*	*	*	*	*	*	*	*	*	*	*	*	*	*	*	*v	*v	*	*	*	*	*	*	*	*	*	*	*	*
!!LO:PB:g=original
=51	=51	=51	=51	=51	=51	=51	=51	=51	=51	=51	=51	=51	=51	=51	=51	=51	=51	=51	=51	=51	=51	=51	=51	=51	=51	=51	=51	=51	=51	=51	=51
!	!	!	!	!	!	!	!	!	!	!	!	!LO:DY:a	!	!	!	!	!	!	!	!	!	!	!	!	!	!	!	!	!	!	!
2.ryy	2.D\	p	2.D\	.	p	(4D/	.	.	2.ryy	4d/	Bo-	p	(2d\	.	(2d/	.	4d/	p	2.r	.	4D\	.	4r	4rAyy	.	2.r	.	2.r	.	2.r	.
!	!	!	!	!	!	!	!	!	!	!	!	!LO:DY:a	!	!	!	!	!	!LO:HP:a	!	!	!	!	!	!	!	!	!	!	!	!	!
.	.	.	.	.	.	4d\	.	.	.	(4.b/	.	>	.	.	.	.	(4.b/	>	.	.	4r	.	2dd/	2dd\	p	.	.	.	.	.	.
.	.	.	.	.	.	4c\)	.	.	.	.	.	.	4c\)	.	4f#/)	.	.	.	.	.	4r	.	.	.	.	.	.	.	.	.	.
.	.	.	.	.	.	.	.	.	.	8a/)	.	]	.	.	.	.	8a/)	]	.	.	.	.	.	.	.	.	.	.	.	.	.
*	*	*	*	*	*	*	*	*	*	*	*	*	*	*	*	*	*	*	*	*	*	*	*v	*v	*	*	*	*	*	*	*
=52	=52	=52	=52	=52	=52	=52	=52	=52	=52	=52	=52	=52	=52	=52	=52	=52	=52	=52	=52	=52	=52	=52	=52	=52	=52	=52	=52	=52	=52	=52
*	*	*	*	*	*	*	*	*	*	*	*	*	*	*	*	*	*	*	*	*	*	*	*	*	*^	*	*	*	*	*
2.ryy	4G\	.	4G\	.	.	4B\	.	.	2.ryy	4g/	-że	.	4B/	.	4g/	.	4g/	.	2.r	.	4r	.	4g/ 4dd	.	4r	4rAyy	.	4r	.	4r	.
!	!	!	!	!	!LO:DY:a	!	!	!LO:DY:a	!	!	!	!LO:DY:a	!	!	!	!	!	!	!	!	!	!	!	!	!	!	!	!	!	!	!
.	16r	f	16r	.	f	16r	.	f	.	16r	.	f	16r	.	16r	.	16r	.	.	.	16r	.	4r	.	16r	16rcyy	.	16r	.	16r	.
!	!	!	!	!	!	!	!	!	!	!	!	!	!	!	!	!	!	!LO:DY:a	!	!	!	!	!	!	!	!	!	!	!	!	!
.	16G'\LL	.	16G\	.	.	16g\	.	.	.	16g/	po	.	16g'\LL	.	16g'/LL	.	16g'/LL	f	.	.	16G'\LL	.	.	.	16g/LL	16g\LL	.	16g'/LL	f	16gg'\LL	f
!	!	!	!	!	!	!	!	!	!	!	!	!LO:DY:a	!	!	!	!	!	!	!	!	!	!	!	!	!	!	!	!	!	!	!
.	16F#'\	.	16F#\	.	.	16f#\	.	.	.	16f#/	ca-	<	16f#'\	.	16f#'/	.	16f#'/	.	.	.	16F#'\	.	.	.	16f#/	16f#\	.	16f#'/	.	16ff#'\	.
.	16G'\JJ	.	16G\	.	.	16g\	.	.	.	16g/	-łym	.	16g'\JJ	.	16g'/JJ	.	16g'/JJ	.	.	.	16G'\JJ	.	.	.	16g/JJ	16g\JJ	.	16g'/JJ	.	16gg'\JJ	.
.	16F#'\LL	.	16F#\	.	.	16d\	.	.	.	16a/	świe-	.	16d'\LL	.	16a'/LL	.	16a'\LL	.	.	.	16F#'\LL	.	4r	.	16a/LL	16d\LL	.	16a'/LL	.	16aa'\LL	.
.	16Fn'\	.	16Fn\	.	.	16d\	.	.	.	16b/	-cie	.	16d'\	.	16g'/	.	16b'\	.	.	.	16Fn'\	.	.	.	16g/	16d\	.	16b'/	.	16bb'\	.
.	16E'\	.	16E\	.	.	16c\	.	.	.	16cc\	sły-	.	16c'\	.	16g'/	.	16cc'\	.	.	.	16E'\	.	.	.	16g/	16c\	.	16cc'/	.	16ccc'\	.
.	16D'\JJ	.	16D\	.	.	16B\	.	.	.	16dd\	-nie	[[	16B'\JJ	.	16g'/JJ	.	16dd'\JJ	.	.	.	16D'\JJ	.	.	.	16g/JJ	16B\JJ	.	16dd'/JJ	.	16ddd'\JJ	.
=53	=53	=53	=53	=53	=53	=53	=53	=53	=53	=53	=53	=53	=53	=53	=53	=53	=53	=53	=53	=53	=53	=53	=53	=53	=53	=53	=53	=53	=53	=53	=53
*	*	*	*	*	*	*	*	*	*	*	*	*	*	*	*	*	*	*	*^	*	*	*	*^	*	*	*	*	*	*	*	*
*	*	*	*	*	*	*	*	*	*	*	*	*	*	*	*	*	*	*	*	*2\right	*	*	*	*	*	*	*	*	*	*	*	*	*
!	!	!	!	!	!	!	!	!	!	!	!	!	!	!	!	!	!	!LO:DY:a	!	!	!	!	!	!	!	!	!	!	!	!	!	!	!
2.ryy	4C/	.	2C\	.	.	2c\	.	.	2.ryy	2ee\	I-	.	4c\	.	4g/	.	4ee\	p	2.ee/	2.cc\	p	(2C\	p	2.ee/	2.cc\	p	2g/	2c\	p	(2ee\	p	(2eee\	p
.	4r	.	.	.	.	.	.	.	.	.	.	.	4r	.	4r	.	4r	.	.	.	.	.	.	.	.	.	.	.	.	.	.	.	.
.	4r	.	4E\	.	.	4c\	.	.	.	4gg\	-mię	.	4r	.	4r	.	4r	.	.	.	.	4E\)	.	.	.	.	4cc/	4g\	.	4gg\)	.	4ggg\)	.
*	*	*	*	*	*	*	*	*	*	*	*	*	*	*	*	*	*	*	*v	*v	*	*	*	*v	*v	*	*	*	*	*	*	*	*
=54	=54	=54	=54	=54	=54	=54	=54	=54	=54	=54	=54	=54	=54	=54	=54	=54	=54	=54	=54	=54	=54	=54	=54	=54	=54	=54	=54	=54	=54	=54	=54
!	!LO:N:vis=1r	!	!	!	!	!	!	!	!	!	!	!	!LO:N:vis=1r	!	!LO:N:vis=1r	!	!LO:N:vis=1r	!	!	!	!	!	!	!	!	!	!	!	!	!	!
2.ryy	2.r	.	2.G\	.	.	2.B\	.	.	2.ryy	2.dd\	Two-	.	2.r	.	2.r	.	2.r	.	2.g/ 2.dd	.	[>2.G\	>]	2.g/ 2.dd	>]	[2.b/	2.g\	>	[2.dd\	>]	[2.ddd\	>]
=55	=55	=55	=55	=55	=55	=55	=55	=55	=55-	=55	=55	=55	=55	=55	=55	=55	=55	=55	=55	=55	=55	=55	=55	=55	=55	=55	=55	=55	=55	=55	=55
2.ryy	4r	.	4G\	.	.	4B\	.	.	2.ryy	4dd\	-je	.	4r	.	4r	.	4r	.	4g/ 4dd	.	4GG\ 4G]	.	4g/ 4dd	.	4b/]	4g\	]	4dd\]	.	4ddd\]	.
!	!	!	!	!	!	!	!	!	!	!	!	!	!	!	!	!	!	!	!	!	!	!	!	!	!LO:N:vis=16r	!	!	!LO:N:vis=16r	!LO:DY:a	!	!
.	8r	.	8r	.	.	8r	.	.	.	8r	.	.	8r	.	8r	.	8r	f	4r	.	8r	.	4r	.	8r	4rcyy	.	8r	f	8r	.
.	(32c\LLL	f	8c\	.	.	8c\	.	.	.	8b\	po	.	(16c\LL	.	(16cc\LL	.	(16cc\LL	.	.	.	(32C\LLL 32c	f	.	.	(16cc\LL	.	f	(16cc\LL	.	(16ccc\LL	f
.	32d\J	.	.	.	.	.	.	.	.	.	.	.	.	.	.	.	.	.	.	.	32D\J 32d	.	.	.	.	.	.	.	.	.	.
.	16c\J	.	.	.	.	.	.	.	.	.	.	.	32d\L	.	32dd\L	.	32dd\L	.	.	.	16C\JJ) 16c	.	.	.	32dd\L	.	.	32dd\L	.	32ddd\L	.
.	.	.	.	.	.	.	.	.	.	.	.	.	32c\JJJ	.	32cc\JJJ	.	32cc\JJJ	.	.	.	.	.	.	.	32cc\JJJ	.	.	32cc\JJJ)	.	32ccc\JJJ)	.
.	8A\)	.	8A\	.	.	8A\	.	.	.	8a\	ca-	.	8A\L)	.	8a\L)	.	8a\L)	.	4r	.	8AA\L 8A	.	4r	.	8a\L)	4rcyy	.	8a\L	.	8aa\L	.
.	8d'\J	.	8d\	.	.	8d\	.	.	.	8dd\	-łym	.	8d'\J	.	8dd'\J	.	8dd'\J	.	.	.	8D'\J 8d	.	.	.	8dd'\J	.	.	8dd'\J	.	8ddd'\J	.
!!LO:PB:g=original
=56	=56	=56	=56	=56	=56	=56	=56	=56	=56	=56	=56	=56	=56	=56	=56	=56	=56	=56	=56	=56	=56	=56	=56	=56	=56	=56	=56	=56	=56	=56	=56
*	*	*	*	*	*	*	*	*	*	*	*	*	*	*	*	*	*	*	*^	*	*	*	*^	*	*	*	*	*	*	*	*
!	!	!	!	!	!	!	!	!	!	!	!	!	!	!	!	!	!	!	!	!	!	!	!	!	!	!	!	!	!	!LO:TX:a:t=Col Flauto 8va	!	!	!
!	!	!	!	!	!	!	!	!	!	!	!	!	!LO:TX:t=P:problem=mixed beam	!	!LO:TX:a:t=Unis	!	!	!	!	!	!	!	!	!	!	!	!	!	!	!	!	!	!
2.ryy	16G'\LL	.	2.G\	.	.	2.G/	.	.	2.ryy	2.g/	świe-	.	16G'/LL	.	16g'/LLyy	.	16g'/LL	.	4g/	4g\	.	8GG'\L 8G	.	2.g/	2.g\	.	2.g/	2.g\	.	16g'/LLyy	.	16gg'\LL	.
.	(16G\	.	.	.	.	.	.	.	.	.	.	.	(16g\	.	(16g/yy	.	(16g/	.	.	.	.	.	.	.	.	.	.	.	.	(16g/yy	.	(16gg\	.
.	16F#\	.	.	.	.	.	.	.	.	.	.	.	16f#\	.	16f#/yy	.	16f#/	.	.	.	.	(16FF#\L 16F#	.	.	.	.	.	.	.	16f#/yy	.	16ff#\	.
.	16G\JJ)	.	.	.	.	.	.	.	.	.	.	.	16g\JJ)	.	16g/JJ)yy	.	16g/JJ)	.	.	.	.	16GG\JJ) 16G	.	.	.	.	.	.	.	16g/JJ)yy	.	16gg\JJ)	.
.	16D'\LL	.	.	.	.	.	.	.	.	.	.	.	16d'\LL	.	16b'/LLyy	.	16b'/LL	.	4dd/	4dd\	.	8D'\L 8d	.	.	.	.	.	.	.	16b'/LLyy	.	16bb'\LL	.
.	(16D\	.	.	.	.	.	.	.	.	.	.	.	(16d\	.	(16b/yy	.	(16b/	.	.	.	.	.	.	.	.	.	.	.	.	(16b/yy	.	(16bb\	.
.	16C#X\	.	.	.	.	.	.	.	.	.	.	.	16c#X\	.	16a#X/yy	.	16a#X/	.	.	.	.	(16C#X\L 16c#X	.	.	.	.	.	.	.	16a#X/yy	.	16aa#X\	.
.	16D\JJ)	.	.	.	.	.	.	.	.	.	.	.	16d\JJ)	.	16b/JJ)yy	.	16b/JJ)	.	.	.	.	16D\JJ) 16d	.	.	.	.	.	.	.	16b/JJ)yy	.	16bb\JJ)	.
.	16BB'/LL	.	.	.	.	.	.	.	.	.	.	.	16B'/LL	.	16dd'\LLyy	.	16dd'\LL	.	4b/	4b\	.	8BB'\L 8B	.	.	.	.	.	.	.	16dd'\LLyy	.	16ddd'\LL	.
.	(16BB/	.	.	.	.	.	.	.	.	.	.	.	(16B/	.	(16dd\yy	.	(16dd\	.	.	.	.	.	.	.	.	.	.	.	.	(16dd\yy	.	(16ddd\	.
.	16AA#X/	.	.	.	.	.	.	.	.	.	.	.	16A#X/	.	16cc#X\yy	.	16cc#X\	.	.	.	.	(16AA#X\L 16A#X	.	.	.	.	.	.	.	16cc#X\yy	.	16ccc#X\	.
.	16BB/JJ)	.	.	.	.	.	.	.	.	.	.	.	16B/JJ)	.	16dd\JJ)yy	.	16dd\JJ)	.	.	.	.	16BB\JJ) 16B	.	.	.	.	.	.	.	16dd\JJ)yy	.	16ddd\JJ)	.
=57	=57	=57	=57	=57	=57	=57	=57	=57	=57-	=57	=57	=57	=57	=57	=57	=57	=57	=57	=57	=57	=57	=57	=57	=57	=57	=57	=57	=57	=57	=57	=57	=57	=57
2.ryy	4GG/	.	4G\	.	.	4G/	.	.	2.ryy	4g/	-cie	.	4G/	.	4gg\yy	.	4gg\	.	4g/	4g\	.	4GG\ 4G	.	4g/	4g\	.	4g/	4g\	.	4gg\yy	.	4ggg\	.
.	4r	.	4r	.	.	4r	.	.	.	4r	.	.	4r	.	4ryy	.	4r	.	4r	4rcyy	.	4r	.	4r	4rcyy	.	4r	4rAyy	.	4ryy	.	4r	.
.	4r	.	4r	.	.	4r	.	.	.	4r	.	.	4r	.	4ryy	.	4r	.	4r	4rcyy	.	4r	.	4r	4rcyy	.	4r	4rAyy	.	4ryy	.	4r	.
*	*	*	*	*	*	*	*	*	*	*	*	*	*	*	*	*	*	*	*	*	*	*	*	*v	*v	*	*	*	*	*	*	*	*
*	*	*	*	*	*	*	*	*	*	*	*	*	*	*	*	*	*	*	*	*	*	*	*	*	*	*v	*v	*	*	*	*	*
=58	=58	=58	=58	=58	=58	=58	=58	=58	=58-	=58	=58	=58	=58	=58	=58	=58	=58	=58	=58	=58	=58	=58	=58	=58	=58	=58	=58	=58	=58	=58	=58
*	*	*	*	*	*	*	*	*	*	*	*	*	*	*	*	*	*	*	*	*	*	*^	*	*	*	*	*	*	*	*	*
!	!	!	!LO:N:vis=1r	!	!	!LO:N:vis=1r	!	!	!	!LO:N:vis=1r	!	!	!	!	!	!	!	!	!	!	!	!	!	!	!	!	!	!	!	!	!	!
2.ryy	4G\	.	2.r	.	.	2.r	.	.	2.ryy	2.r	.	.	4B\ 4g	.	4d\ 4b 4gg	.	4g\ 4dd 4bb	.	4g/	4g\	.	4G/	4G\	.	4g/ 4dd	.	4g/ 4b	.	4gg\	.	4bb\	.
.	4r	.	.	.	.	.	.	.	.	.	.	.	4r	.	4r	.	4r	.	4r	4rAyy	.	4r	2ryy	.	4r	.	4r	.	4r	.	4r	.
.	8.r	.	.	.	.	.	.	.	.	.	.	.	8.r	.	8.r	.	8.r	.	8.r	8.reyy	.	8.r	.	.	8.r	.	8.r	.	8.r	.	8.r	.
.	16GG/	.	.	.	.	.	.	.	.	.	.	.	16G/ 16d	.	16B/ 16g	.	16B/ 16g	.	16g/	16g\	.	16GG/ 16G	.	.	16g/ 16dd	.	16B/ 16g	.	16g/	.	16gg\	.
*	*	*	*	*	*	*	*	*	*	*	*	*	*	*	*	*	*	*	*	*	*	*v	*v	*	*	*	*	*	*	*	*	*
=59	=59	=59	=59	=59	=59	=59	=59	=59	=59-	=59	=59	=59	=59	=59	=59	=59	=59	=59	=59	=59	=59	=59	=59	=59	=59	=59	=59	=59	=59	=59	=59
!	!	!	!LO:N:vis=1r	!	!	!LO:N:vis=1r	!	!	!	!LO:N:vis=1r	!	!	!	!	!	!	!	!	!	!	!	!	!	!	!	!	!	!	!	!	!
2.ryy	2.GG/	.	2.r	.	.	2.r	.	.	2.ryy	2.r	.	.	2.G/ 2.d	.	2.B/ 2.g	.	2.B/ 2.g	.	2.g/	2.g\	.	2.GG/ 2.G	.	2.g/ 2.dd	.	2.B/ 2.g	.	2.g/	.	2.gg\	.
*	*	*	*	*	*	*	*	*	*	*	*	*	*	*	*	*	*	*	*v	*v	*	*	*	*	*	*	*	*	*	*	*
==	==	==	==	==	==	==	==	==	==	==	==	==	==	==	==	==	==	==	==	==	==	==	==	==	==	==	==	==	==	==
*-	*-	*-	*-	*-	*-	*-	*-	*-	*-	*-	*-	*-	*-	*-	*-	*-	*-	*-	*-	*-	*-	*-	*-	*-	*-	*-	*-	*-	*-	*-
!!!system-decoration: s1,s2,s3,s4,s5,s6[(s7,s8)]s9[(s10,s11,s12,s13)]s14,s15
!!!RDF**kern: < = below
!!!RDF**kern: > = above
!!!RDF**kern: | = vertical stroke
!!!ENC: Marta Chmielewska
!!!END: 2021-04-27
!!!ENC: Marcin Jachim
!!!END: 2021-04-09
